X:1
T: Ouverture
T:Richard Wagner
T:Adp. from arrangements by Johannes Doebber (circa 1911) and Franz Liszt (circa 1848)
T:To the Opera "Tannhäuser"
%%score { ( 1 4 ) | ( 2 3 5 ) }
L:1/8
Q:1/4=60
M:3/4
K:E
V:1 treble nm="Piano"
V:4 treble 
V:2 bass 
V:3 bass 
V:5 bass 
V:1
!p!"^Andante maestoso" B,2 | [B,E]4 B,2 | G,4 (3G,A,B, | B,2 [A,C]2 B,2 | B,2 A,2 [A,C]2 | %5
 [^A,F]4 [A,E]2 | [B,D]4 (3B,C[B,D] | [B,E]2 [G,C]2 B,>G, | G,2!pp! F,2[K:bass] B,>!p!C | %9
 C2 B,2 [G,C]2 | [A,C]4!pp! B,>C | C2 B,2 [G,C]2 |!p! [^^F,^A,C]4 [F,A,C]2 | B,4 (3B,CD | %14
 [E,G,E]2 [F,G,^B,D]2 [G,C]2 | [F,=B,]2 C3 B, | [D,F,B,]4!pp! [F,=A,]2 | B,4 ^A,>=A, | %18
 A,4 [F,A,=C]2 |!p! =D4 ^C>=C | =C4 [A,C_E]2 |!<(! =F4!mp! E>^D!<)! |!>(! ^D4!p! E2!>)! | %23
!p! =D2 =C2 [E,=G,]>A, | [D,B,]4[K:treble] B,>B | [B,B]4 [^A,^A]>[=A,=A] | [=DFA]4 D>=d | %27
 [=D=d]4 [Cc]>[=C=c] | [A=c]4 =F>=f |!<(! [=F=f]4 [Ee]>[^D^d] | [DAd]4 [E^Ge]2!<)! | %31
 [Ad]2!>(! ^c2 B>!p!A!>)! | [DG]2!p! [DF]2!p! [DFB]2 | [EGB]4 [EGB]>c |!<(! [DFBd]4!mp! [DFBd]2 | %35
 [DGBd]4 [DGBd]>!mf![Ee] | f6 | %37
 (3[=Adf][Adf][Adf] (3[Adfb]!f![dfb]!<)![dfb]!ff! (3[dabd'][dabd'][dabd'] || %38
[M:9/8][Q:1/4=90] [egbe']!mp!(3e/d/ z/ (3d/c/ z/ (3c/B/ z/ (3B/A/ z/ (3A/G/ z/ (3G/F/ z/ (3F/E/ z/ (3D/E/ z/ | %39
 (3G/g/ z/ (3g/f/ z/ (3f/e/ z/ (3e/d/ z/ (3d/c/ z/ (3c/B/ z/ (3B/A/ z/ (3A/G/ z/ (3F/G/ z/ | %40
 (3B/b/ z/ (3b/a/ z/ (3a/g/ z/ (3g/f/ z/ (3f/e/ z/ (3e/d/ z/ (3d/c/ z/ (3c/B/ z/ (3^A/B/ z/ | %41
 (3c/c'/ z/ (3c'/b/ z/ (3b/a/ z/ (3a/g/ z/ (3g/f/ z/ (3f/e/ z/ (3e/d/ z/ (3d/c/ z/ (3^B/c/ z/ | %42
 (3f/f'/ z/ (3f'/e'/ z/ (3e'/d'/ z/ (3d'/c'/ z/ (3c'/b/ z/ (3b/^a/ z/ (3a/g/ z/ (3g/f/ z/ (3f/e/ z/ | %43
 (3d/d'/ z/ (3d'/c'/ z/ (3c'/b/ z/ (3b/a/ z/ (3a/g/ z/ (3g/f/ z/ (3f/e/ z/ (3e/d/ z/ (3d/c/ z/ | %44
 (3B/b/ z/ (3b/a/ z/ (3a/g/ z/ (3g/f/ z/ (3f/e/ z/ (3e/d/ z/ (3d/c/ z/ (3c/B/ z/ (3B/^A/ z/ | %45
 (3=A/a/ z/ (3a/g/ z/ (3g/f/ z/ (3f/e/ z/ (3e/d/ z/ (3d/c/ z/ (3c/B/ z/ (3B/A/ z/ (3A/G/ z/ | %46
 (3D/c/ z/ (3c/B/ z/ (3B/A/ z/ (3A/G/ z/ (3G/F/ z/ (3F/E/ z/ (3E/D/ z/ (3D/C/ z/ (3^B,/C/ z/ | %47
 (3F/f/ z/ (3f/e/ z/ (3e/d/ z/ (3d/c/ z/ (3c/B/ z/ (3B/A/ z/ (3A/G/ z/ (3G/F/ z/ (3F/E/ z/ | %48
 (3A/a/ z/ (3a/g/ z/ (3g/f/ z/ (3f/e/ z/ (3e/d/ z/ (3d/c/ z/ (3c/B/ z/ (3B/^A/ z/ (3A/G/ z/ | %49
 (3^A/^a/ z/ (3a/g/ z/ (3g/^^f/ z/ (3f/e/ z/ (3e/d/ z/ (3d/c/ z/ (3c/B/ z/ (3B/^A/ z/ (3A/c/ z/ | %50
!mp! (3B/b/ z/ (3b/=a/ z/ (3a/g/ z/ (3g/f/ z/ (3f/e/ z/ (3e/d/ z/ (3d/c/ z/ (3c/B/ z/ (3^A/B/ z/ | %51
 (3e/e'/ z/ (3e'/d'/ z/ (3d'/c'/ z/ (3c'/^b/ z/ (3b/a/ z/ (3a/g/ z/ (3g/f/ z/ (3f/e/ z/ (3d/c/ z/ | %52
 (3f/f'/ z/ (3f'/e'/ z/ (3e'/d'/ z/ (3d'/c'/ z/ (3c'/b/ z/ (3b/^a/ z/ (3a/g/ z/ (3g/f/ z/ (3f/e/ z/ | %53
 (3d/d'/ z/ (3d'/c'/ z/ (3c'/b/ z/ (3b/^a/ z/ (3a/g/ z/ (3g/f/ z/ (3f/e/ z/ (3e/d/ z/ (3=c/!ff!B/ z/ || %54
[M:3/4][Q:1/4=60]!f! B4 ^A>=A || %55
[M:9/8][Q:1/4=90]!mp! (3A/!p!a/ z/ (3a/g/ z/ (3g/=g/ z/ (3g/f/ z/ (3f/_e/ z/ (3e/=d/ z/ (3d/=c/ z/ (3c/_B/ z/ (3B/!f!A/ z/ || %56
[M:3/4][Q:1/4=60]!f! =d4 ^c>=c || %57
[M:9/8][Q:1/4=90]!mp! (3=F/!p!=f/ z/ (3f/e/ z/ (3e/_e/ z/ (3e/_d/ z/ (3d/=c/ z/ (3c/_B/ z/ (3B/A/ z/ (3A/_G/ z/ (3G/!f!F/ z/ || %58
[M:3/4]!f![Q:1/4=60] [=F=f]4 [Ee]>!mf![^D^d] ||[M:9/8][Q:1/4=90] [Dd]6!mp! [Ee]3 || %60
[M:3/4]!mp![Q:1/4=60] [=D=d]2!p! [=C=c]2 [=G,=G]>[A,A] ||[M:9/8][Q:1/4=90] B6- B2 z || %62
[M:3/4]!p![Q:1/4=60] B,4 ^A,>=A, || %63
[M:9/8][Q:1/4=90] (3A,/!pp!A/ z/ (3A/G/ z/ (3G/=G/ z/ (3G/E/ z/ (3F/_E/ z/ (3E/=D/ z/[K:bass] x3 || %64
[M:3/4]!p![Q:1/4=60] =D4 ^C>=C || %65
[M:9/8][Q:1/4=90]!pp! (3=C/=F/ z/ (3F/E/ z/ (3E/_E/ z/ (3E/_D/ z/ (3D/=C/ z/ (3C/_B,/ z/ (3B,/A,/ z/ (3A,/_G,/ z/ (3G,/=F,/ z/ || %66
[M:3/4][Q:1/4=60]!p! =F4 [=CE]>^D ||[M:9/8][Q:1/4=90]!p! D6!p! E3 || %68
[M:3/4][Q:1/4=60]!p! [A,^D]2 ^C2 B,>!pp!A, || %69
[M:9/8][Q:1/4=90] z!ppp! (3^A,/B,/ z/ (3B,/A,/ z/ (3A,/B,/ z/ (3B,/=C/ z/ (3C/B,/ z/!p! (3B,/!ppp!A,/ z/ (3A,/=A,/ z/ (3A,/G,/ z/ || %70
[M:3/4][Q:1/4=60]!p! [G,B,E]4 [E,B,]2 | [E,G,]4 (3G,A,B, | B,2 [A,C]2 B,2 | B,2 A,2 [A,C]2 | %74
 [^A,F]4 [A,E]2 | [B,D]4 (3B,C[B,D] | [B,E]2 [G,C]2 B,>G, | G,2 F,2 B,>C | C2 B,2 C2 | %79
 C4!pp! B,>C | C2 B,2 C2 ||[M:4/4]!p! C4 z4[Q:1/4=120]"^Allegro" | %82
[K:treble]!pp! [^gb]/e/[gb]/^a/ b/g/b/g/ b/g/b/g/ [=ga]/c/[ga]/c/ | %83
 [=g^a]/c/[ga]/c/ =a/f/a/^g/ a/f/a/f/ g/=f/g/f/ | %84
 =g/4^f/4g/4f/4g/4f/4g/4f/4 g/4f/4g/4f/4g/4f/4g/4f/4 g/4f/4g/4f/4g/4f/4g/4f/4 g/4f/4g/4f/4g/4^g/4a/4^a/4 | %85
 b/4^a/4b/4a/4b/4a/4b/4a/4 b/4a/4b/4a/4b/4a/4b/4a/4 b/4a/4b/4a/4b/4a/4b/4a/4 b/4a/4b/4a/4b/4a/4b/4^b/4 | %86
 c'/4^b/4c'/4b/4c'/4b/4c'/4b/4 c'/4b/4c'/4b/4c'/4b/4c'/4b/4 c'/4b/4c'/4b/4c'/4b/4c'/4b/4 c'/4b/4c'/4b/4!<(!c'/4b/4c'/4d'/4 | %87
 e'/4d'/4e'/4d'/4e'/4d'/4e'/4d'/4 e'/4d'/4e'/4d'/4e'/4d'/4e'/4d'/4 e'/4!p!d'/4e'/4d'/4e'/4d'/4e'/4d'/4 e'/4d'/4!mp!e'/4d'/4e'/4d'/4e'/4f'/4!<)! | %88
!pp!!8va(! [e'=g']/=c'/g'/c'/ [e'g']/c'/g'/c'/ [e'g']>[=d'b'] [e'g']>[d'b'] | %89
 [e'=g']/=c'/g'/c'/ [e'g']/c'/g'/c'/ [e'g']>[=d'b'] [e'g']>[d'b'] | %90
 [=f'=c'']/=c'/[f'c'']/c'/ [f'c'']/c'/[f'c'']/=g'/ [f'a']>[c'c''] [f'a']>[c'c''] | %91
 [=f'=c'']/=c'/[f'c'']/c'/ [f'c'']/c'/[f'c'']/=g'/ [f'a']>[c'c''] [f'a']>[c'c''] | %92
!mp!!<(! =c''3/2b'/4a'/4 c''3/2b'/4a'/4 c''3/2!mf!b'/4a'/4 c''3/2b'/4a'/4 | %93
 =c''3/2b'/4a'/4 c''3/2!f!b'/4a'/4 c''3/2b'/4a'/4 c''3/2b'/4!<)!a'/4 | %94
!f! ^c''!8va)! z!mf! b>^a [cc']2 [Bb]>[^Aa] | [cc']2 [Bb]>[^A^a] [=A=a][Gg][=G=g][Ff] | %96
!mp! [EGe]2 [GB]z/G/ [EG]>g [eg]2 | [eg]2 [Be]z/B/ [GB]>b [gb]2 |!pp! [gb]>^a [gb]4 [e=ga]2- | %99
 [ega]2 =a>=g [^dfa]2 [e=g^c']2 |!mp! [e^gb]2 [eg]z/e/ [Be]>e' [gbe']2 | %101
 [gbe']2 [gb] z/ g/ [eg]>g' [e'g']2 |!pp!!8va(! [c'g']>^^f' [c'g']4 [c'=g']2- | %103
 [c'g']2 f'>!p!!<(!^e' [^bf']2!mp! [^ac'^a']2!<)! | %104
!pp! g'/4^^f'/4g'/4f'/4g'/4f'/4g'/4f'/4 g'/4f'/4g'/4f'/4g'/4f'/4g'/4f'/4 g'/4f'/4g'/4f'/4g'/4f'/4g'/4f'/4!p! .[^bd'g'] z | %105
 [bg'b']>!p!f'!mp! [bg'b']>!p!f' [bg'b']>!p!f' [bg'b']>!p!f' | %106
!pp! e'/4d'/4e'/4d'/4e'/4d'/4e'/4d'/4 e'/4d'/4e'/4d'/4e'/4d'/4e'/4d'/4 e'/4d'/4e'/4d'/4e'/4d'/4e'/4d'/4 .[gbe'] z | %107
 [=ge'=g']>=d' [ge'g']>d'!mp! [ge'g']>d' [ge'g']>d' | %108
!pp! =g'/4f'/4g'/4f'/4g'/4f'/4g'/4f'/4 g'/4f'/4g'/4f'/4g'/4f'/4g'/4f'/4 g'/4f'/4g'/4f'/4g'/4f'/4g'/4f'/4!p! .[^ac'g'] z | %109
 =g'/4f'/4g'/4f'/4g'/4f'/4g'/4f'/4 g'/4f'/4g'/4f'/4g'/4f'/4g'/4f'/4 g'/4f'/4g'/4f'/4g'/4f'/4g'/4f'/4!p! .[^ac'g'] z!8va)! | %110
!mf!!>(! e'/4d'/4e'/4d'/4e'/4d'/4e'/4d'/4 e'/4d'/4e'/4d'/4e'/4d'/4e'/4d'/4 e'/4d'/4e'/4d'/4e'/4d'/4e'/4d'/4 e'/4d'/4e'/4d'/4e'/4d'/4e'/4d'/4 | %111
 e'/4d'/4e'/4d'/4!pp!e'/4d'/4e'/4d'/4!>)! e'/4d'/4e'/4d'/4e'/4d'/4e'/4d'/4 e'/4d'/4e'/4d'/4e'/4d'/4e'/4d'/4 e'/4d'/4e'/4d'/4e'/4d'/4e'/4d'/4 | %112
!pp! [^ac'e']/=g/[ac'e']/g/ [ac'e']/g/[ac'e']/g/ [ac'e']/g/[ac'e']/g/ [ac'e']/g/[ac'e']/g/ | %113
 [be']/^g/[be']/g/ [be']/^g/[be']/g/ [be']/^g/[be']/g/ [be']/^g/[be']/g/ | %114
 [^ae']/=g/[ae']/g/ [ae']/g/[ae']/g/ [ae']/g/[ae']/g/ [ae']/g/[ae']/g/ | %115
!8va(!!<(! [bf']/=a/[bf']/a/ [d'f']/b/[d'f']/!p!b/ [f'a']/d'/[f'a']/d'/ [f'a']/d'/[f'a']/!<)!!pp!d'/ | %116
 [c'e'=g']/^a/[c'e'g']/a/ [c'e'g']/a/[c'e'g']/a/!8va)! [ac'e']/=g/[ac'e']/g/ [ac'e']/g/[ac'e']/g/ | %117
 [be']/^g/[be']/g/ [be']/^g/[be']/g/ [be']/^g/[be']/g/ [be']/^g/[be']/g/ | %118
 [^ae']/=g/[ae']/g/ [ae']/g/[ae']/g/ [ae']/g/[ae']/g/ [ae']/g/[ae']/g/ | %119
!8va(! [bf']/=a/[bf']/a/ [d'f']/b/[d'f']/!p!b/ [f'a']/d'/[f'a']/d'/ [f'a']/d'/[f'a']/d'/ | %120
!pp! [=d'=f'_a']/b/[d'f'a']/!p!b/ [d'f'a']/b/[d'f'a']/b/ [_e'=g']/!pp!_b/[e'g']/b/ [e'g']/b/[e'g']/b/ | %121
 [^b^d'^f']/=a/[bd'f']/!p!a/ [bd'f']/a/[bd'f']/a/ [c'^e']/!pp!g/[c'e']/g/ [c'e']/g/[c'e']/g/!8va)! | %122
 [^ac'=e']/=g/[ac'e']/g/ [ac'e']/g/[ac'e']/g/ [ac'e']/g/[ac'e']/g/ [ac'e']/!p!g/[ac'e']/g/ | %123
 [^ae']/=g/[ae']/g/ [ae']/g/[ae']/g/ [ae']/!mp!g/[ae']/g/ [ae']/g/[ae']/g/ | %124
!f![Q:1/4=112]"^Un poco ritenuto" [df=ad']2!mf! [cc']>[=c=c']!mp!"^= 112" [cc']2!p! [Bb] z | %125
 [dfad']2!mf! [cc']>[=c=c']!mp! [cc']2!p! [Bb] z | %126
!p!!<(! [gbe'g']>[Gg] [Gg]2- [Gg]>!mp![^B^b] [Bb]2- | %127
 [Bb]2 [cc']2- [cc']>!mf![=d=d'] [dd']>[^d^d']!<)! | %128
!f! [dfad']2!mf! [cc']>[=c=c']!mp! [cc']2!p! [Bb] z | %129
!f! [dfad']2!mf! [cc']>[=c=c']!mp! [cc']2!p! [Bb] z | %130
!p! [^Ae=g^a]>[g=g'] [gg']2-!<(! [gg']>!mp![ff'] [ff']2- | %131
 [ff']2 [^e-b=d'^e'-]2 [e^ac'e']>!mf![=e=e'] [ee']>!<)![^d^d'] | %132
!f![Q:1/4=120]"^Un poco accelerando" [dfad']2!mf! [cc']>[=c=c']!mp! [cc']2!p!"^= 120" [Bb] z | %133
!mp! [e=g^ae']2 [dd']>[=d=d']!<(! [dd']2 [cc'] z | [f=af']2 [^e^e']>[=e=e'] [ee']2 [dd'] z | %135
 [=g^a=g']2[Q:1/4=132] [ff']>[ee'] [gag']2 [ff']>[ee'] | %136
 [^g^ae'^g']2 [ff']>[^e^e']!ff! [gag']2 [ff']>!<)![ee'] |!ff! [^Acg] z g!8va(! z g' z g'' z | %138
 g'!8va)! z g z g'!8va(! z z!ff! [F^Acf]-!8va)! | [FAcf] [f^ac'f']2 [fac'f']2 [fac'f']2 [fac'f']- | %140
 [fac'f'][Q:1/4=144] FGF B^Adc | [Ff][Ee][Gg][Ff] [Bb][^A^a][dd'][cc'] | %142
!8va(! [ee'] [cc'][dd'][ee'] [ff'][^^f^^f'][gg'][^a^a']!8va)! |!ff!"^Tempo I" [Bdfb]4 ^^cdfb | %144
 [dgbd']4 [cegc']4 |{/d'c'} [cf^a]2 [Ff]2 [Bdfb]2 [Bdfb]2 | [cf^ac']3 a f2 [F^Acef]2 | %147
 [FBdf]4 [Bb][^A^a][Bb][^B^b] | [cf^ac']6 [cc'][dd'] | [egc'e']2 ^ab d'c'ae | [GBd]2 z2 f2 z2 | %151
 [Bdfb]4 ^^cdfb | [dgbd']4 [c^egc']4 |{/d'c'} [c=e^a]2 [Ff]2 [Bc^eb]2 [Bceb]2 | %154
 [c=efc']3 ^a f2 [Fcef]2 | [FBdf]3 ^^f g^abc' | [^egd']4{/^e'd'} [fc']2 [^Af^a]2 | %157
 [F^Adf]2 [Gg][A^a] [Bc^egb]3 [^Ee] |!f! [F^Acf]4 z2!mf! f2 |!<(! [dd']6!f! [cc']2!<)! | %160
!>(! [^A^a]4!>)!!mf! [Ff]!<(![Gg]!f![Aa][Bb]!<)! | [^B^e-g-^b]4!>(! [cegc']3!mf! [Gg]!>)! | %162
 [^A^a]4 f2{/gf} ^e!f!f | [dd']6!mf! [cc']2 | [^A^a]4!mp!!<(! [Ff][Gg]!mf![Aa][Bb]!<)! | %165
!f!!>(! [^B^b]3 [cc']!mf! [cc']2!>)! [Gg]2 |!mp! [^A^a]4 [Ff]2 [Ff]2 | %167
 [F^Acf]3 [Ff] [Gg]!mf!!<(![A^a][Bb][cc']!<)! | [=d=d']4!mp! [=Dd]4 | %169
!<(! [=GB=d=g]3!mf! [Gg] [Aa][Bb][=c=c'][d=d'] | [ee']4!<)!!f! [E^G=de]4 | %171
 [Acea]3 [Aa] [Bb][cc'][=d=d'][ee'] | [=fa=d'=f']4!<(! [faf']4!<)! | %173
[Q:1/4=132]!8va(! .[^fa^d'^f']>.[^eg=d'^e'] [^d'f']4!ff! [=d'e']2- | %174
 [d'e']2!ff! .[=eac'=e']>[^d^d'] [c'e']2!ff! [^gb=d'^e'^g']2 | %175
!ff! .[=a=c'f'=a']>.[gb^e'g'] [f'a']4!ff! [=f'^g']2- | %176
 [f'g']2!ff! .[=g=c'e'=g']>.[^f^f'] [g^a^c'e'g']2 [b=d'=f'^g'b']2 | %177
 .[=c'_e'a'=c'']>.[b=d'^g'b'] [a'c'']4!ff! [g'b']2- | %178
 [g'b']2!ff! .[_b_e'=g'_b']>!mf!.[aa']!f! b'2 [f'a']2- | %179
 [f'a']2 .[_a=d'=f'_a']>.[=g=g'] a'2 [_e'g']2- | %180
 [e'g']2 .[^fb^d'^f']>!p!.[^e^e'] [d'f']2 [=d'^e']2 |!pp![Q:1/4=120] [=g^ac'=e']8 | %182
 [^ge']2 [gb]z/g/ g>[e'g'] [e'g']2 | [^ac'e'=g']8 |!p! [b=g']2 [b=d']z/b/ b>[g'b'] [g'b']2 | %185
!pp! [=g'_b']7/2 [_a'_e'']/ [g'b']>[=f'=d''] [g'b']>[f'd''] | %186
 [=g'_b']7/2 [_a'_e'']/ [g'b']>[=f'=d''] [g'b']>[f'd''] | %187
!p! [_a'_e'']7/2 [=g'_b']/ [a'=c'']>[_e'e''] [a'c'']>[e'e''] | %188
 [_a'_e'']7/2 _b'/ [a'=c'']>[_e'e''] [a'c'']>[e'e''] | %189
!p! [_e'_e'']3/2!<(!=d''/4=c''/4 [e'e'']3/2d''/4c''/4 [e'e'']3/2!mp!d''/4c''/4 [e'e'']3/2d''/4c''/4 | %190
 [_e'_e'']3/2=d''/4=c''/4 [e'e'']3/2d''/4c''/4 [e'e'']3/2!mf!d''/4c''/4 [e'e'']3/2d''/4!<)!c''/4 | %191
!f!!>(! [=e'=e'']2!mf! [=d'=d'']>[^c'^c''] [e'e'']2 [d'd'']>[c'c''] | %192
 [=e'=e'']2!mp! [=d'=d'']>[^c'^c''] [e'e'']2!p! [d'd'']>!>)![c'c'']!8va)! | %193
[Q:1/4=112]"^Un poco ritenuto"!pp! [a=c'e']/4f/4[ac'e']/4f/4[ac'e']/4f/4[ac'e']/4f/4 [ac'e']/4f/4[ac'e']/4f/4"^= 112"[ac'e']/4f/4[ac'e']/4f/4 [ac'e']/4f/4[ac'e']/4f/4!<(![ac'e']/4f/4[ac'e']/4f/4!p! [ac'e']/4f/4[ac'e']/4f/4[ac'e']/4f/4[ac'e']/4f/4!<)! | %194
!mp!!>(! [a=c'e'] [fac'=d']2 [fac'd']2!p! [fac'd']2!pp! [fac'd']!>)! | %195
!ppp! [a=c'=d']/4f/4[ac'd']/4f/4[ac'd']/4f/4[ac'd']/4f/4 [ac'd']/4f/4[ac'd']/4f/4[ac'd']/4f/4[ac'd']/4f/4 [ac'd']/4f/4[ac'd']/4f/4[ac'd']/4f/4[ac'd']/4f/4 [ac'd']/4f/4[ac'd']/4f/4[ac'd']/4f/4[ac'd']/4f/4 | %196
 [b=d']/4=g/4[bd']/4g/4[bd']/4g/4[bd']/4g/4 [bd']/4g/4[bd']/4g/4[bd']/4g/4[bd']/4g/4 [bd']/4g/4[bd']/4g/4[bd']/4g/4[bd']/4g/4 [bd']/4g/4[bd']/4g/4[bd']/4g/4[bd']/4g/4 | %197
 [^c'e']/4_b/4[c'e']/4b/4[c'e']/4b/4[c'e']/4b/4 [c'e']/4b/4[c'e']/4b/4[c'e']/4b/4[c'e']/4b/4 [c'e']/4b/4[c'e']/4b/4[c'e']/4b/4[c'e']/4b/4 [c'e']/4b/4[c'e']/4b/4[c'e']/4b/4[c'e']/4b/4 | %198
 [_bc'e']/4=g/4[bc'e']/4g/4[bc'e']/4g/4[bc'e']/4g/4 [bc'e']/4g/4[bc'e']/4g/4[bc'e']/4g/4[bc'e']/4g/4 [bc'e']/4g/4[bc'e']/4g/4[bc'e']/4g/4[bc'e']/4g/4 [bc'e']/4g/4[bc'e']/4g/4[bc'e']/4g/4[bc'e']/4g/4 | %199
 [_bc'e']/4=g/4[bc'e']/4g/4[bc'e']/4g/4[bc'e']/4g/4 [bc'e']/4g/4[bc'e']/4g/4[bc'e']/4g/4[bc'e']/4g/4 [bc'e']/4g/4[bc'e']/4g/4[bc'e']/4g/4[bc'e']/4g/4 [bc'e']/4g/4[bc'e']/4g/4[bc'e']/4g/4[bc'e']/4g/4 | %200
 [=c'=d']/4a/4[c'd']/4a/4[c'd']/4a/4[c'd']/4a/4 [c'd']/4a/4[c'd']/4a/4[c'd']/4a/4[c'd']/4a/4 [c'd']/4a/4[c'd']/4a/4[c'd']/4a/4[c'd']/4a/4 [c'd']/4a/4[c'd']/4a/4[c'd']/4a/4[c'd']/4a/4 | %201
 [be']/4=g/4[be']/4g/4[be']/4g/4[be']/4g/4 [be']/4g/4[be']/4g/4[be']/4g/4[be']/4g/4 [b=d']/4g/4d'/4g/4[bd']/4g/4d'/4g/4 [bd']/4g/4d'/4g/4[bd']/4g/4d'/4g/4 | %202
 [a^c']/4=g/4[ac']/4g/4[ac']/4g/4[ac']/4g/4 [ac']/4g/4[ac']/4g/4[ac']/4g/4[ac']/4g/4 [ac'e']/4g/4[ac'e']/4g/4[ac'e']/4g/4[ac'e']/4g/4 [ac'e']/4g/4[ac'e']/4g/4[ac'e']/4g/4[ac'e']/4g/4 | %203
 [a=d']/4f/4[ad']/4f/4[ad']/4f/4[ad']/4f/4 [ad']/4f/4[ad']/4f/4[ad']/4f/4[ad']/4f/4 d'/4e'/4d'/4e'/4d'/4e'/4d'/4e'/4 d'/4e'/4d'/4e'/4!p!c'/d'/ | %204
!mp!!8va(! =d''4 b'7/2 ^d'/ | =g'8 |!mp! =d''4 b'7/2 ^d'/ | =g'8 |!mp! =f''4 =d''7/2 =f'/ | _b'8 | %210
!mp! =f''4 =d''7/2 =f'/ | ^a'8 |!p! ^g'4!pp! ^e'7/2 g/ | f'6 f'2 | c''7 ^b' |!pp! =b'8 | b'7 ^a' | %217
 =a'8 | ^a'8 | b'2 x2!p! x4!8va)! |!p! f2 z2 z4 | ^A2 G>=G G2 F z | d>D!<(! D2- D>!mp!^^F F2-!<)! | %223
 F2 G2- G>A A>^A |!p! ^A2 G>=G G2 F z | ^A2 G>=G G2 F z | ^E>=d!<(! d2 d>!mp!c c2-!<)! | %227
 c2 ^B2- B>=B B>^A |!p![Q:1/4=120]"^Un poco accelerando" ^A2 G>=G G2"^= 120" F z | %229
 [B,=D^EB]2 [^A,^A]>[=A,=A] [A,A]2 [G,G] z | %230
 [C=E^Ac]2!<(! [^B,^B]>[=B,=B]!mp! [B,B]2 [^A,A] z!<)! | [DF^Bd]2 [=D=d]>[Cc] [Cc]2 [^B,B] z | %232
 [E=Gce]2 [Dd]>[=D=d] [Dd]2 [Cc] z | [F=Adf]2 [^E^e]>[=E=e] [Ee]2 [Dd] z | %234
 [GB^eg]2[Q:1/4=132]!<(! [=G=g]>[Ff]!mf! [Ff]2 [^Ee] z!<)! | %235
 [^Ac^^f^a]2 [=A=a]>[Gg] [Gg]2 [=G=g] z | [=c^d=c']2 [Bb]>[Aa] [cdc']2 [Bb]>[Aa] | %237
 [^cda^c']2!<(! [Bb]>[^A^a]!f! [cc']2!ff! [Bb]>[Aa]!<)! | %238
 !arpeggio!.[=Adfc'] (3A,/D/F/.c (3A/d/f/.c'!8va(! (3a/d'/f'/.c''!8va)! (3A/d/f/ | %239
 .c' (3A,/D/F/.c (3A/d/f/.c'!8va(! (3a/d'/f'/.c''!8va)! (3A/d/f/ | %240
 .[fac'] [Bfab]2 [Bfab]2 [Bfab]2 [Bfab]- | [Bfab] [Bfab]2[Q:1/4=144] [^Bfa^b]2 [cfac']2 [dfad'] | %242
"^Tempo I" [ege']4 ^^fgbe' | [gc'e'g']4 [fac'f']4 |{/g'f'} [fbd']2 [Bb]2 [egbe']2 [egbe']2 | %245
 [fbd'f']3 d' b2 [Bdfab]2 | [Begb]4 [ee'][dd'][ee'][^e^e'] | [fbd'f']6 [ff'][gg'] | %248
 [ac'f'a']2 [dd'][ee'] [gg'][ff'][dd'][Aa] | [Gceg]2 z2 [Bdfab]2 z2 | [egbe']4 ^^fgbe' | %251
 [gc'e'g']4 [f^ac'f']4 |{/g'f'} [f=ad']2 [Bdfb]2 [ef^ae']2 [efae']2 | [f=abf']3 d' b2 [Bdfab]2 | %254
 [Begb]3 [^B^b]!<(! [cc']!f![dd'][ee']!ff![ff']!<)! | [gc'g']4 [ff']2 [dd']2 | %256
 [Bdgb]2 [cc'][dd'] [ef^ac'e']3 [^Aa] |!f! [Bdfb]4 z2!mf! B2 |!f! g6 f2 | %259
!mp! d4!<(! B!mf!cd!f!e!<)! | ^e4 f3 c | [DFBd]4!mp! B2!mf! B2 |!f! g6!mp! f2 | %263
 d4!<(! B!mf!cd!f!e!<)! | ^e3 f f2!mf! c2 | [DFBd]6!mp! B2 | [B,DFB]3!<(! B!mf! cd!f!ef!<)! | %267
 [=GBe=g]4 [Gg]4 | [=Ge=g]3 [Geg] [F=df]2 [E=ce]2 | [E=ce]2 [=DB=d]4 [D=GBd]2 | [^DAB^d]4 [FBdf]4 | %271
 [EGe]6 [Geg]2 | [Fcf]2 (5:4:5g/f/^e/f/g/ [Adfa]3 d | %273
[Q:1/4=150]"^Molto Vivace"!ff! [GBe]2 [EGB]z/[EG]/"^= 150" [EG]>[eg] [eg]2 | %274
 [Beg]2 [GBe]z/[GB]/ [GB]>[gb] [gb]2 | [Begb]>[ce^a] [egb]4 [ce=ga]2- | %276
 [cega]2 [=df=a]>^g [=c^dfa]2!ff! [^ce=g^c']2 |!ff! [Be^gb]2 [Beg]z/[GBe]/ [GBe]>[gbe'] [gbe']2 | %278
 [egbe']2 [egb]z/[eg]/ [eg]>[be'g'] [be'g']2 | %279
!8va(! [gc'^e'g']>[^ac'^^f'] [c'e'g']4 [ac'=e'=g']2- | %280
 [ac'e'g']2 [bd'f']>^e' [=a^bd'f']2 [^ac'=e'^a']2 | %281
!ff! [g^bg']/a/^a/=b/^b/c'/=d'/^d'/e'/^e'/f'/^^f'/ .[gg'] z | %282
 [=be'=b']>f' [be'b']>f' [be'b']>f' [be'b']>f' | %283
 [e'e'']/=f'/^f'/=g'/^g'/a'/^a'/b'/=c''/^c''/=d''/^d''/!8va)! .[ege'] z | %284
 [=ge'=g']>=d' [ge'g']>d' [ge'g']>d' [ge'g']>d' | %285
 =g/^g/=a/^a/b/^b/c'/=d'/^d'/e'/^e'/=f'/ .[=g^ac'=g'] z | %286
 =g/^g/=a/^a/b/^b/c'/=d'/^d'/e'/^e'/=f'/ .[=g^ac'=g'] z | %287
 e'/d'/e'/!<(!d'/ e'/d'/e'/d'/ e'/d'/e'/d'/ e'/d'/e'/d'/ | %288
!f! e'/d'/e'/d'/ e'/d'/e'/d'/ e'/d'/e'/d'/!ff! e'/d'/e'/!<)!d'/ | %289
!mf! [^ac'e']/=g/[ac'e']/g/ [ac'e']/g/[ac'e']/g/ [ac'e']/g/[ac'e']/g/ [ac'e']/g/[ac'e']/g/ | %290
 [be']/^g/[be']/g/ [be']/g/[be']/g/ [be']/g/[be']/g/ [be']/g/[be']/g/ | %291
 [^ae']/=g/[ae']/g/ [ae']/g/[ae']/g/ [ae']/g/[ae']/g/ [ae']/g/[ae']/g/ | %292
 [bf']/a/[bf']/a/ [d'f']/b/[d'f']/b/ [f'a']/d'/[f'a']/d'/ [f'a']/d'/[f'a']/d'/ | %293
!ff! [=g^ac'=g']7 f'/e'/ | [dfd']2 [cc']>[=c=c'] [cc']2 [Bb] z | [=g^ac'=g']7 f'/e'/ | %296
 [dfd']2 [cc']>[=c=c'] [cc']2 [Bb] z | [e=ge']2 [dd']>[=d=d'] [dd']2 [cc'] z | %298
 [f=af']2 [^e^e']>[=e=e'] [ee']2 [dd'] z | [=g^a=g']2 [ff']>[ee'] [gag']2 [ff']>[ee'] | %300
 [=g=g']3/2f'/4e'/4 [gg']3/2f'/4e'/4 [gg']3/2f'/4e'/4 [gg']3/2f'/4e'/4 | %301
!8va(! [be'^g'b']>^a' b'4!ff! a'2- | a'2 [=a=d'f'=a']>[^g^g'] [=c'^d'f'a']2 [b=d'f'g']2 | %303
 [=g=c'e'=g']>^f' g'4!ff! f'2- | f'2!ff! [=f_b=d'=f']>[=e=e'] [^g=bd'f']2 [=g^a=c'e']2 | %305
 [fa=c'e']2 [fac'^d'][^e^gb=d'] [e=g^a^c']2!8va)! [df=a=c']2 | %306
 [=d=f^g=c']2 [Bdfb][^Ace^a] [=A=c^d=a]2 [^GB=d^g]2 | %307
 [^Ac=e^g]2 [Ace=g][=A=c=df] [^GBd^e]2 [=G^Ac=e]2 | %308
 [F=A=c^d]2 [^EGB=d][E=G^A^c] [^DF=A=c]2 [=D^EGB]2 | %309
!f! ^A/=g/ g/f/ f/^e/ e/=e/ e/d/ d/=d/ d/c/ c/^B/ | c/^a/ a/=a/ a/g/ g/=g/ g/f/ f/^e/ e/=e/ e/d/ | %311
 e/c'/ c'/^b/ b/=b/ b/^a/ a/=a/ a/g/ g/=g/ g/f/ | %312
 =g/e'/e'/d'/ d'/=d'/d'/c'/ c'/^b/b/=b/ b/^a/a/^^g/ | %313
!ff! ^a/=g'/ g'/f'/ f'/^e'/ e'/=e'/ e'/d'/ d'/=d'/ d'/c'/ c'/^b/ | %314
 ^b/=b/!f! b/^a/ a/=a/ a/g/ g/=g/ g/f/ f/^e/ e/=e/ | %315
 e/d/!mf! d/=d/ d/c/ c/^B/ ^B/=B/ B/^A/ A/=A/ A/G/ | %316
 G/=G/!mp! G/F/ F/^E/ ^E/=E/ E/D/ D/=D/ D/C/ C/=C/ | %317
!p! =C/B,/ B,/^A,/ A,/B,/!mp! B,/C/ C/^C/ C/=D/ D/^D/!mf! D/E/ | %318
 E/^E/ ^E/F/ F/=G/!>(! G/F/!mp! F/=E/ E/D/ D/=D/!p! D/C/!>)! | %319
!pp! C/=C/ C/B,/ B,/^A,/ A,/B,/ B,/C/ C/B,/ B,/A,/ A,/B,/ | B,/=C/ C/B,/ B,/^A,/ A,/D/!p! D4 | %321
!p! [G,B,E]8 | x4!p! B,4 | C/A/ A/G/ G/=G/ G/F/ F/E/ E/D/ D/=D/ D/C/ | %324
 C/A/ A/G/ G/=G/ G/F/ F/E/ E/D/ D/E/ E/D/ |!p! z!ppp! B/^A/ A/=A/ A/G/ G/=G/ G/F/ F/=F/ F/E/ | %326
!p! z!ppp! c/^B/ B/=B/ B/^A/ A/=A/ A/G/ G/=G/ G/F/ | %327
!p! z!ppp! =d/c/ c/^B/ ^B/=B/ B/A/ A/G/ G/F/ F/^E/ | F/=d/ d/c/ c/^B/ B/=B/ B/A/ A/G/ G/F/ F/^E/ | %329
!mp! F/!pp!f/ f/^e/ e/=e/ e/d/ d/=d/ d/c/ c/B/ B/^A/ | %330
 ^A/f/ f/^e/ e/=e/ e/d/ d/=d/ d/c/ c/B/ B/A/ |!mp! z!pp! g/f/ f/^e/ e/=e/ e/d/ d/c/ c/=c/ c/B/ | %332
 B/g/ g/f/ f/^e/ e/=e/ e/d/ d/c/ c/=c/ c/B/ | e/c'/ c'/b/ b/^a/ a/=a/ a/g/ g/f/ f/=f/ f/e/ | %334
 e/c'/ c'/b/ b/a/ a/g/ g/f/ f/^e/ ^e/=e/ e/d/ | d/b/ b/^a/ a/=a/ a/g/ g/f/ f/^e/ ^e/=e/ e/d/ | %336
 d/b/ b/^a/ a/=a/ a/f/ f/d/ d/B/ B/A/ A/F/ |!mp! z!pp! c/B/ B/A/ A/G/ G/F/ F/^E/ E/=E/ E/D/ | %338
 D/c/ c/B/ B/A/ A/G/ G/F/ F/^E/ E/=E/ E/^E/ | F/f/ f/e/ e/=d/ d/c/ c/B/ B/A/ A/G/ G/F/ | %340
 F/f/ f/e/ e/^d/ d/c/ c/B/ B/A/ A/G/ G/A/ |!mp! z!pp! a/g/ g/f/ f/e/ e/d/ d/c/ c/B/ B/A/ | %342
 A/a/ a/g/ g/f/ f/e/ e/d/ d/c/ c/B/ B/^A/ | z ^a/g/ g/^^f/ f/e/ e/d/ d/c/ c/B/ B/^A/ | %344
 ^A/^a/ a/g/ g/^^f/ f/e/ e/d/ d/^^c/ c/^c/ c/B/ | B/b/ b/=a/ a/g/ g/f/ f/e/ e/d/ d/c/ c/B/ | %346
 B/b/ b/a/ a/g/ g/f/ f/e/ e/d/ d/c/ c/B/ |!mp! z!pp! g/f/ f/e/ e/d/ d/c/ c/B/ B/A/ A/G/ | %348
 G/g/ g/f/ f/e/ e/d/ d/c/ c/B/ B/^A/ A/G/ | F/f/ f/e/ e/d/ d/c/ c/B/ B/^A/ A/G/ G/F/ | %350
 F/f/ f/e/ e/d/ d/c/ c/B/ B/^A/ A/G/ G/F/ | F/d/ d/c/ c/B/ B/^A/ A/G/ G/F/ F/E/ E/D/ | %352
 D/=A/ A/G/ G/F/ F/E/ E/D/ D/C/!ppp! C/=C/ z | z =G/F/ F/E/ E/D/ D/=D/ D/=C/ C/B,/ B,/^A,/ | %354
 z ^A/G/ G/F/ F/E/ E/D/ D/C/ C/B,/ z | z =A/G/ G/=G/ G/F/ F/E/ E/=D/ D/C/ C/D/ | %356
 =D/=d/ d/=c/ c/_B/ B/A/ A/=G/ G/F/ F/_E/ z | z _B/A/ A/=G/ G/F/ F/=F/ F/_E/ E/=D/ D/^C/ | %358
 z ^c/B/ B/A/ A/=G/ G/F/ F/E/ E/=D/ z | z =c/B/ B/_B/ B/A/ A/=G/ G/=F/ F/E/ E/F/ | %360
 =F/=f/f/_e/ e/_d/d/=c/ c/_B/B/A/ A/_G/ z | z _d/=c/ c/_B/ B/A/ A/_A/ A/_G/ G/=F/ F/=E/ | %362
 z e/=d/ d/=c/ c/B/ B/A/ A/=G/ G/=F/ F/E/ | z ^d/=c/ c/B/ B/A/ A/=G/ G/=F/ F/E/ E/D/ | %364
 z e/=d/ d/^c/ c/B/ B/A/ A/G/ G/F/ F/E/ |!mp! z!ppp! a/g/ g/f/ f/e/ e/d/ d/c/ c/B/ B/A/ | %366
 F/f/ f/e/ e/d/ d/c/ c/B/ B/A/ A/G/ G/F/ | D/d/ d/c/ c/B/ B/A/ A/G/ G/F/ F/E/ E/D/ | %368
 B,/B/ B/A/ A/G/ G/F/ F/E/ E/D/ D/C/ C/B,/ |!ppp! z!<(! B/A/ A/G/ G/F/ F/E/ E/D/ D/C/ C/B,/ | %370
 z B/A/ A/G/ G/F/ F/E/ E/D/ z2!<)! |!mp! z d/c/ c/B/ B/^A/ A/G/ G/F/ F/E/ E/D/!pp! | %372
!mp! D/!pp!d/ d/c/ c/B/ B/^A/ A/G/ G/F/ F/E/ E/D/ | %373
!mp! z!<(! d/c/ c/B/ B/^A/ A/G/ G/F/ F/E/ E/D/!pp! | %374
!mp! z d/c/ c/B/ B/^A/ A/G/!p! G/F/!<)!!mf! z2!pp! | z f/e/ e/d/ d/c/ c/B/ B/^A/ A/G/ G/F/!p! | %376
 F/f/ f/e/!<(! e/d/ d/c/ c/B/!mp! B/^A/ A/^^G/ G/A/ | %377
!p! B/!mp!b/ b/=a/ a/g/ g/f/ f/e/ e/d/ d/^^c/ c/!<)!d/ | %378
 z!mp! d'/c'/ c'/b/ b/a/ a/g/ g/f/ f/e/ e/d/ | z!mf! e'/d'/ d'/c'/ c'/b/ b/a/ a/g/ g/f/ f/e/ | %380
 e/e'/ e'/d'/ d'/c'/ c'/b/ b/a/ a/g/ g/f/ f/e/ | %381
 z!mf! e'/d'/ d'/c'/ c'/b/ b/a/ a/g/ g/f/ f/e/!mp! | %382
 z!mf! g'/f'/ f'/e'/ e'/d'/ d'/c'/ c'/b/ b/a/ a/g/!mp! | %383
 g/g'/ g'/f'/ f'/e'/!mf! e'/d'/ d'/c'/ c'/b/!f! b/a/ a/g/ |!ff! (3[G,EG]4 [A,EA]4 [B,EB]4 | %385
 z!mf!!8va(! b'/a'/ a'/g'/ g'/f'/ f'/e'/ e'/d'/ d'/c'/ c'/b/!8va)!!mp! | %386
!ff! z!mf!!8va(! c''/b'/ b'/a'/ a'/g'/ g'/f'/ f'/e'/ e'/d'/ d'/c'/!8va)!!mp! | %387
 z!mf!!8va(! b'/a'/ a'/g'/ g'/f'/ f'/e'/ e'/d'/ d'/c'/ c'/b/!8va)!!mp! | %388
 z!mf!!8va(! b'/a'/ a'/g'/ g'/f'/ f'/e'/ e'/d'/ d'/c'/ c'/b/!8va)!!mp! | %389
 z!mf!!8va(! a'/g'/ g'/f'/ f'/e'/ e'/d'/ d'/c'/!8va)! c'/b/ b/a/!mp! | %390
 z!mf!!8va(! c''/b'/ b'/a'/ a'/g'/ g'/f'/ f'/e'/ e'/d'/ d'/c'/!8va)!!mp! | %391
 z!mf!!8va(! f''/e''/ e''/d''/ d''/c''/ c''/b'/ b'/^a'/ a'/g'/ g'/f'/!mp! | %392
 f'/e'/ e'/d'/ d'/c'/ c''/b'/ b'/^a'/ a'/g'/ g'/f'/ f'!8va)! | %393
!ff! z!mf! f'/e'/ e'/d'/ d'/c'/ c'/b/ b/^a/ a/g/ g/f/!mp! | %394
!ff! z!mf!!8va(! d''/c''/ c''/b'/ b'/=a'/ a'/g'/ g'/f'/ f'/e'/ e'/d'/!8va)!!mp! | %395
 d'/c'/ c'/b/ b/a/ a/g/ g/f/ f/e/!f! e/d/ d |!ff! (3[B,DFB]4 [CFc]4 [DFBd]4 | %397
 z!mf!!8va(! e''/d''/ d''/c''/ c''/b'/ b'/a'/ a'/g'/ g'/f'/ f'/e'/!8va)! | %398
 z!mf! g'/f'/ f'/e'/ e'/d'/ d'/c'/ c'/b/ b/a/ a/g/ | %399
 z!mf!!8va(! b'/a'/ a'/g'/ g'/f'/ f'/e'/ c'/b/!8va)!!ff! z2 | %400
 z!mf!!8va(! d''/c''/ c''/b'/b'/g'/ g'/d'/!8va)!d'/c'/ c'/b/b/g/ | %401
 z!mf! d'/c'/ c'/b/b/g/ g/f/f/d/ d/c/c/B/ | %402
!ff! z!mf!!8va(! b'/g'/ g'/f'/ f'/d'/!8va)! d'/c'/ c'/b/ z2 | %403
 z!mf!!8va(! c''/g'/ g'/f'/ f'/d'/!8va)! d'/c'/ c'/g/ g/f/ f/d/ | %404
 z!mf!!8va(! b'/g'/ g'/f'/ f'/d'/!8va)! d'/b/ b/g/ g/f/ f/d/ | %405
 z!mf!!8va(! b'/g'/ g'/f'/ f'/e'/!8va)! e'/b/ b/g/ g/e/ e/c/ | %406
 z!mf!!8va(! c''/b'/ b'/a'/ a'/g'/ g'/f'/ f'/e'/ e'/d'/ d'/c'/!8va)! | %407
 c'/b/ b/a/ a/g/ g/f/ f/e/ e/d/ d/c/ c/ z/ | z!mf!!8va(! b'/g'/ g'/f'/ f'/e'/!8va)! e'/b/ g/e/ z2 | %409
 z!mf!!8va(! c''/a'/ a'/f'/ f'/d'/ d'/c'/!8va)! c'/a/ a/f/ f/d/ | %410
!ff! z!mf!!8va(! b'/a'/ a'/f'/ f'/d'/!8va)! d'/b/ b/a/ a/f/ f/d/ | %411
!ff! z!mf!!8va(! c''/g'/ g'/e'/ e'/c'/!8va)! c'/g/ g/e/ e/c/ c/G/ | %412
 z!mf!!8va(! c''/b'/ b'/^a'/ a'/g'/ g'/^^f'/ f'/e'/!8va)! e'/d'/ d'/c'/ | %413
 c'/b/ b/^a/ a/g/ g/^^f/ f/e/ e/d/ d/c/ c/B/ | %414
 z!mf!!8va(! c''/b'/ b'/^a'/ a'/g'/ g'/^^f'/ f'/e'/ e'/d'/ d'/c'/!8va)! | %415
 z!mf!!8va(! b'/a'/ a'/g'/ g'/f'/ f'/e'/ e'/d'/!8va)! d'/c'/ c'/b/ | %416
!ff! z!mf!!8va(! b'/a'/ a'/g'/ g'/f'/ f'/e'/ e'/!f!d'/!8va)! d'/c'/ c'/b/ | %417
 (3[B,DFB]4 [CFAc]4 [DFAd]4 | %418
!ff! z!mf!!8va(! e''/d''/ d''/c''/ c''/b'/ b'/a'/ a'/g'/ g'/f'/ f'/e'/!8va)! | %419
 z!mf!!8va(! d''/c''/ c''/b'/ b'/a'/ a'/g'/ g'/f'/ f'/e'/ e'/d'/!8va)! | %420
 z!mf!!8va(! c''/b'/ b'/a'/ a'/g'/ g'/f'/ f'/e'/ e'/d'/ d'/c'/!8va)! | %421
 z!mf!!8va(! b'/a'/ a'/g'/ g'/f'/ f'/e'/ e'/d'/ d'/c'/!8va)! c'/b/ | %422
 z!mf!!8va(! a'/g'/ g'/f'/ f'/e'/!8va)! e'/d'/ d'/c'/ c'/b/ b/a/ | %423
 z!mf! g'/f'/ f'/e'/e'/d'/ d'/c'/c'/b/ b/^a/a/g/ | %424
[Q:1/4=144] z2 [ff'][ee'] [dd'][cc'][Bb]!f![Aa][Gg][Ff][Ee][Dd]!mf! | %425
 [Cc][B,B][A,A][G,G][F,F][Q:1/4=96] [F,B,EF][F,B,DF][F,B,CF]!ff! | %426
[Q:1/4=132] z2 (5:4:5[G,B,]/D/E/[GB]/d/ (6:4:6e/[gb]/d'/!8va(!e'/[g'b']/d''/ .[e'g'b'e'']!8va)! z | %427
 z2 (5:4:5[A,C]/D/E/[Ac]/d/ (6:4:6e/[ac']/d'/!8va(!e'/[a'c'']/d''/ .[e'a'c''e'']!8va)! z | %428
 z z (5:4:5[G,B,]/D/E/[GB]/d/ (6:4:6e/[gb]/d'/!8va(!e'/[g'b']/d''/ .[e'g'b'e'']!8va)! z | %429
 z z (5:4:5[A,C]/D/E/[Ac]/d/ (6:4:6e/[ac']/d'/!8va(!e'/[a'c'']/d''/ .[e'a'c''e'']!8va)! z | %430
 (6:4:6z E z [EGBe] z [egbe'] (6:4:6z [EG] z [Geg] z [ge'g'] | %431
 (6:4:6z [B,EGB] z!8va(! [be'g'b'] z [be'g'b']!8va)! (6:4:6z [EGBe] z [egbe'] z!8va(! [e'g'b'e''] | %432
 [e'g'b'e'']2!8va)! z2 [egbe']7/2 [egbe']/ | [egbe']2 z2 [E,G,B,E]7/2 [E,G,B,E]/ | %434
[Q:1/4=60] !fermata![E,G,B,E]8 |] %435
V:2
 z2 | [E,G,]4 [G,,E,]2 | [C,E,]4 (3:2:2E,2 E, | [G,,E,]2 [A,,E,]2 [G,,E,]2 | [C,F,]4 F,2 | %5
!mp! [F,,C,F,]4!p! [F,,C,]2 | [=A,,F,]4 (3[D,F,]E,F, | E,4 E,2 | D,4 D,2 | [A,,D,]4 [G,,E,]2 | %10
 [F,,C,F,]4 [G,,E,]2 | [F,,D,]4!p! [E,,E,]2 | [D,,D,]4 [D,,D,]2 | [E,,E,]2 [F,,D,]2 [D,,B,,]2 | %14
!p! [C,,C,]2 [D,,D,]2 [E,,E,]2 | D,2 E,3 D, | [B,,,B,,]4 B,,>B, |!pp! E,2 =D,2 C,2 | %18
 =D,4!p! D,>=D | =G,2 =F,2 E,2 | =F,4 F,>=F | [_B,,_B,]2!mp! [_A,,_A,]2 [=G,,=G,]2 | %22
 [^F,,^F,]2!p! [=F,,=F,]2 [E,,E,]2 | [A,,E,]4 [=C,,=C,]2 | z2!pp! F,2 [D,F,A,]2 |!p! [E,=G,]2 F,4 | %26
 [=D,F,]2 [F,A,]2 [F,A,=C]2 | [=G,_B,]2 [=F,A,]2 [E,A,]2 | A,2 [A,=C]2 [A,C_E]2 | %29
 [_B,,_B,]2 [_A,,_A,]2!mp! [=G,,=G,]2 | [^F,,^F,]2 [=F,,=F,]2 [E,,E,]2 | E,3!p! ^E,- E,F, | %32
 A,4!pp! (3A,A,A, | %33
!ped! (3[E,G,B,][E,G,B,][E,G,B,] (3[E,G,B,][E,G,B,][E,G,B,] (3[E,G,B,][E,G,B,][E,G,B,]!ped-up! | %34
!p!!ped! (3z!pp! [B,,F,B,][B,,F,B,] (3[B,,F,B,][B,,F,B,][B,,F,B,] (3[B,,F,B,][B,,F,B,][B,,F,B,]!ped-up! | %35
!mp!!ped! (3z!pp! [G,,B,,D,G,][G,,B,,D,G,] (3[G,,B,,D,G,][G,,B,,D,G,][G,,B,,D,G,] (3[G,,B,,G,]!p![G,,B,,G,][G,,B,,G,]!ped-up! | %36
!f!!ped! (3z!p! [F,^A,C][F,A,C] (3[F,A,C]!mp![F,A,C][F,A,C] (3[F,A,C][F,A,C][F,A,C]!ped-up! | %37
!mf!!ped! (3z [F,B,D][F,B,D] (3[F,B,DF][F,B,DF][F,B,DF] !^!B,2!ped-up! || %38
[M:9/8]!ped! !^!E6!ped-up!!ff!!ped! !^!B,3!ped-up! | %39
!ff!!ped! !^!G,6!ped-up!!ff!!ped! !^![E,G,]!^!A,!^!B,!ped-up! | %40
!ped! B,3!ped-up!!ff!!ped! C3!ped-up!!ff!!ped! B,3!ped-up! | %41
!ff!!ped! B,3!ped-up!!ff!!ped! A,3!ped-up!!ff!!ped! C3!ped-up! |!ff!!ped! F6!ff! E3!ped-up! | %43
!ff!!ped! D6!ped-up!!ff!!ped! B,CD!ped-up! | %44
!ff!!ped! E3!ped-up!!ff!!ped! C3!ped-up!!ff!!ped! B,-!mp!(3B,-B,!ff!G,!ped-up! | %45
!ped! G,3!ped-up!!ff!!ped! F,3!ped-up!!ff!!ped! B,-!mp!(3B,-B,!ff!C!ped-up! | %46
!ped! C3!ped-up!!ff!!ped! B,3!ped-up!!ff!!ped! C3!ped-up! | %47
!ff!!ped! C6!ped-up!!ff!!ped! B,-!mp!(3B,-B,!ff!C!ped-up! | %48
!ped! C3!ped-up!!ff!!ped! B,3!ped-up!!ff!!ped! C3!ped-up! | %49
!ff!!ped! C6!ped-up!!ff!!ped! C3!ped-up! | %50
!ff!!ped! B,6!ped-up!!ped!!ff! B,!ped-up!!ped!CD!ped-up! | %51
!ped! E3!ped-up!!ff!!ped! D3!ped-up!!ff!!ped! C3!ped-up! | %52
!ff!!ped! B,3!ped-up!!ff!!ped! C3-!ped-up! C-C/!ff! C3/2 | %53
!ff!!ped! B,6!ped-up!!ff! B,-!mp! (3B,-B, z ||[M:3/4]!mf! B,4!mf! ^A,>!mf!=A, || %55
[M:9/8]!p!!ped! A,3!ped-up!!ped! x3!ped-up!!mf! =D-!p!(3D-D z ||[M:3/4]!f! =D4!mf! ^C>!mf!=C || %57
[M:9/8]!p!!ped! =C3!ped-up!!ped! x3!ped-up!!mf! =F-!p!(3F-F z || %58
[M:3/4]!mp! (3[_B,_D][B,D][B,D] (3[_A,=C][A,C][A,C] (3[=G,C]!p![G,C][G,C] || %59
[M:9/8]!ped!!>(! [F,A,=C][F,A,C][F,A,C]!ped-up!!ped! [=F,A,B,]!pp![F,A,B,][F,A,B,]!>)!!ped-up! [E,G,B,][E,G,B,][E,G,B,] || %60
[M:3/4] (3[A,,E,A,][A,,E,A,][A,,E,A,] (3[A,,E,A,][A,,E,A,][A,,E,A,] (3[=C,E,][C,E,][C,E,] || %61
[M:9/8]!pp!!ped! [B,,D,F,][B,,D,F,][B,,D,F,]!ped-up!!ped! [B,,D,F,][B,,D,F,][B,,D,F,]!ped-up!!mp! B,,-!pp!(3B,,- B,,!mf! B, || %62
[M:3/4] =G,2 F,4 || %63
[M:9/8]!pp!!ped! [=D,F,][D,F,][D,F,]!ped-up! [D,F,][D,F,][D,F,]!p!!ped! D,-!ped-up! (3D,-D,=D || %64
[M:3/4] [=G,,=G,]2 [=F,,=F,]2 [E,,E,]2 || %65
[M:9/8]!p!!ped! =F,!pp![A,,=C,][A,,C,]!ped-up! [A,,C,][A,,C,][A,,C,]!p!!ped! F,-(3F,-F,=F!ped-up! || %66
[M:3/4] [_B,,_B,]2 [_A,,_A,]2 [=G,,=G,]2 || %67
[M:9/8]!pp!!ped! [^F,,A,,=C,^F,]3!ped-up! [=F,,A,,B,,=F,]3!ped! [E,,E,]3!ped-up! || %68
[M:3/4] E,3 ^E,2 F, ||[M:9/8]!ped! G,3!ped-up! F,3-!ped! F,2 z!ped-up! ||[M:3/4] E,4 G,,2 | %71
 C,4 (3B,,C,G,, | G,,2 A,,2 G,,2 | [F,,C,]4 F,2 | C,4 C,2 | F,4 (3D,E,F, | E,4 G,,>[E,,B,,] | %77
 [B,,,B,,]4 [B,,D,]2 | [A,,D,]4 [G,,E,]2 | [F,,C,F,]4 G,,2 | [F,,D,]4 [E,,E,]2- || %81
[M:4/4] [E,,E,] E,=G,^A,[K:treble] CE/F/ =GE |!p! cB/^A/ B^G e2 E z | z2 =d2 [=c^d]2 [B=d]2 | %84
!p!!ped! ^A/4!pp!c/4A/4c/4A/4c/4A/4c/4 A/4c/4A/4c/4A/4c/4A/4c/4 A/4c/4A/4c/4A/4c/4A/4c/4 A/4c/4A/4c/4A/4c/4A/4c/4!ped-up! | %85
!p!!ped! [^GB]/4!pp!e/4[GB]/4e/4[GB]/4e/4[GB]/4e/4 [GB]/4e/4[GB]/4e/4[GB]/4e/4[GB]/4e/4 [GB]/4e/4[GB]/4e/4[GB]/4e/4[GB]/4e/4 [GB]/4e/4[GB]/4e/4[GB]/4e/4[GB]/4e/4!ped-up! | %86
!p!!ped! [=G^A]/4!pp!e/4[GA]/4e/4[GA]/4e/4[GA]/4e/4 [GA]/4e/4[GA]/4e/4[GA]/4e/4[GA]/4e/4 [GA]/4e/4[GA]/4e/4[GA]/4e/4[GA]/4e/4 [GA]/4e/4[GA]/4e/4[GA]/4e/4[GA]/4e/4!ped-up! | %87
!p!!ped! [^GB]/4e/4[GB]/4e/4[GB]/4e/4[GB]/4e/4 [GB]/4e/4[GB]/4e/4[GB]/4e/4[GB]/4e/4 [GB]/4e/4[GB]/4e/4[GB]/4e/4!mp![GB]/4e/4 [GB]/4e/4[GB]/4e/4[GB]/4e/4[GB]/4e/4!ped-up! | %88
!mp! [=CE=G]7/2 [A,=F]/ [CE]>[=G,G] [CE]>[G,G] | [=CE]7/2 [A,=F]/ [CE]>[=G,=G] [CE]>[G,G] | %90
[K:bass] [A,=F]7/2 [=CE]/ [A,F]>[E=G] [A,F]>[EG] | [A,=F]7/2 [=CE]/ [A,F]>[E=G] [A,F]>[EG] | %92
!pp!!ped! [=F,A,]/D/[F,A,]/D/ [F,A,]/D/[F,A,]/D/ [F,A,]/D/[F,A,]/D/!p! [F,A,]/D/[F,A,]/D/!ped-up! | %93
!ped! [=F,A,]/D/[F,A,]/D/ [F,A,]/D/[F,A,]/D/!mp! [F,A,]/D/[F,A,]/D/ [F,A,]/D/[F,A,]/D/!ped-up! | %94
!ped! [D,^F,]/!p!A,/[D,F,]/A,/ [D,F,]/A,/[D,F,]/A,/ [D,F,]/A,/[D,F,]/A,/ [D,F,]/A,/[D,F,]/A,/ | %95
 [D,F,]/A,/[D,F,]/A,/ [D,F,]/A,/[D,F,]/A,/ [D,F,]/A,/[D,F,]/A,/ [D,F,]/A,/[D,F,]/A,/!ped-up! | %96
 (6:4:6E,,G,,B,,E,G,B, (6:4:6G,,B,,E,G,B,E | (6:4:6B,,E,G,B,EG (6:4:6E,G,B,[K:treble]EGB | %98
 e>c e4 c2- | c2 =d2 =c2!p! ^A2 |[K:bass] (6:4:6E,,B,,E,G,B,E (6:4:6B,,E,G,B,EG | %101
 (6:4:6E,G,B,[K:treble]EGB (6:4:6G,B,EGBe | [c^eg]>^A [ceg]4 [A=e=g]2- | %103
 [Aeg]2 f>^e [=Adf]2 [^^Fc=e]2 |!mf! [G^Bdg]2!ped! z2 z2!ped-up! .[GBdg] z | %105
!mp! [G,E]>[B,F] [G,E]>[B,F]!mp! [G,E]>[B,F]!mp! [G,E]>[B,F] | %106
!mp! [EG]2!ped! z2 z2!ped-up!!p! .[EGBe] z | %107
!mp! [E=c]>!p![=GB]!mp! [Ec]>!p![GB] [Ec]>!p![GB]!mp! [Ec]>!p![GB] | %108
!mp! [E^A^c]2!ped! z2 z2!ped-up! .[EAce] z | %109
!pp!!ped! =g/4f/4g/4f/4g/4f/4g/4f/4 g/4f/4g/4f/4g/4f/4g/4f/4 g/4f/4g/4f/4g/4f/4g/4f/4!ped-up! .[E^Ace] z | %110
!ped! e/4d/4e/4d/4e/4d/4e/4d/4 e/4d/4e/4d/4e/4d/4e/4d/4 e/4d/4e/4d/4e/4d/4e/4d/4 e/4d/4e/4d/4e/4d/4e/4d/4 | %111
 e/4d/4e/4d/4e/4d/4e/4d/4 e/4d/4e/4d/4e/4d/4e/4d/4 e/4d/4e/4d/4e/4d/4e/4d/4 e/4d/4e/4d/4e/4d/4e/4d/4!ped-up! | %112
!p! e[K:bass] E,!<(!=G,^A,[K:treble] CE/F/ =G!mp!E | cB/^A/ .B!mf!.^G!<)! e2 E z | %114
!p! dc/^B/ c2 dc/B/ c2 | ed/c/ B/!mp!d/f/a/ c'2!mf! b z | %116
 z[K:bass]!p! E,!<(!=G,^A,[K:treble] CE/!mp!F/ =GE | cB/^A/ .B!mf!.^G!<)! e2 E z | %118
!p! dc/^B/ c2 dc/B/ c2 |!<(! ed/c/ B/d/!mp!f/a/ c'2!<)!!mf! b z | %120
 z!mp!!<(! _A,!mf!B,=D!<)! _E!mp!!>(!=F/^F/!p! =G=E!>)! | %121
 z!mp!!<(! F,!mf!A,^B,!<)! C!mp!!>(!D/=E/!p! ^EC!>)! | %122
 z[K:bass] E,=G,^A,[K:treble]!<(! CE/!mp!F/ =GE | dc/^B/ d!mf!c/B/ dc/B/ d!f!c/!<)!=c/ | %124
[K:bass]!ped! (6:4:6B,,!p!^B,,C,=D,^D,E,!ped-up! (6:4:6^E,F,G,A,^A,=B, | %125
!f!!ped! (6:4:6B,,!p!^B,,C,=D,^D,E,!ped-up! (6:4:6^E,F,G,A,^A,=B, | %126
!p!!ped! (6:4:6B,,^B,,C,=D,^D,E,!ped-up! (6:4:6D,E,^E,F,^^F,G, | %127
{/B,,} (6:4:6A,^A,B,^B,!mp!C=D[K:treble] (6:4:6^DE^EF!mf!G=A | %128
[K:bass]!ped! (6:4:6B,,!p!^B,,C,=D,^D,E,!ped-up! (6:4:6^E,F,G,A,^A,=B, | %129
!ped! (6:4:6B,,!p!^B,,C,=D,^D,E,!ped-up! (6:4:6^E,F,G,A,^A,=B, | %130
!p!!ped! (6:4:6C,=D,^D,E,F,=G,!ped-up! (6:4:6D,E,^E,F,^G,A, | %131
 (6:4:6G,A,^A,B,!mp!^B,C[K:treble] (6:4:6=D^DE^E!mf!F=G | %132
[K:bass]!ped! (6:4:6B,,!p!^B,,C,=D,^D,E,!ped-up! (6:4:6^E,F,G,A,^A,=B, | %133
!p!!ped! (6:4:6C,D,E,^E,F,=G,!ped-up! (6:4:6^G,A,^A,B,^B,C | %134
!ped! (6:4:6D,E,F,^^F,G,A,!ped-up! (6:4:6^A,B,^B,C^^CD | %135
!ped! (6:4:6E,^E,F,=G,A,^A,!ped-up! (6:4:6G,^G,=A,^A,B,=C | %136
!ped! (6:4:6^A,B,^B,CDE (6:4:6^A,=B,^B,C!ff!DE!ped-up! | %137
!ped! F,,/C,/E,/ z/ F,/C/E/ z/[K:treble] F/c/e/ z/ F,/C/E/ z/ | %138
[K:bass] F,,/C,/E,/ z/ F,/C/E/ z/[K:treble] F/c/e/ z/ [f^ac'e'] [F^Acf]- | %139
 [FAcf]!ped-up!!ped! [F^Ace]2 [FAce]2 [FAce]2 [FAce]- | %140
 [FAce]!ped-up![K:bass] !wedge![F,,F,]!wedge![G,,G,]!wedge![F,,F,] [B,,B,][^A,,^A,][D,D][C,C] | %141
 F,E,G,F, B,^A,DC | E CDE F^^FG^A |!ped! [D,F,B,]D,F,B,!ped-up! ^^CDF z | %144
!ped! G,,B,,D,G,!ped-up!!ped! C,E,G,C!ped-up! | E,^A,CE DF,B,D, | F,^A,,C,F, ^A,CEA, | %147
!ped! B,D,F,B,!ped-up! D,F,B,D |!ped! F,,^A,,C,F, C,F,!ped-up!^A,C | C,,G,,C,E, F,,^A,,C,F, | %150
 G,,B,,^^C,D, F,F,^A,C |!ped! [D,F,B,]D,F,B,!ped-up! ^^CDF z | %152
!ped! G,,B,,D,G,!ped-up!!ped! C,^E,G,C!ped-up! | F,,^A,,C,F, G,,C,G,,G, | ^A,,C,F,^A, C,=E,A,C | %155
 B,,D,F,B, D,F,B,D | B,,^E,G,B, ^A,C,F,=A,, | D,F,,^A,,D, C,^E,,G,,C, | %158
!mp!!ped! F,,/C,/F,/^A,/ F,/A,/F,/C,/!ped-up!!ped! F,,/C,/F,/A,/ F,/A,/F,/C,/!ped-up! | %159
!ped! B,,/D,/F,/B,/ D,/F,/B,/D/ B,/!mf!C/^E/G/!ped-up! ^A,/C/F/^A/ | %160
!ped! F,/^A,/C/F/ C/!mp!F/C/A,/!ped-up! D,/F,/A,/D/ A,/D/!mf!A,/F,/ | %161
!ped! C,/^E,/G,/B,/ G,/B,/G,/E,/!ped-up!!ped! C,/!mp!E,/G,/B,/ G,/B,/G,/E,/!ped-up! | %162
!ped! F,,/C,/F,/^A,/ F,/A,/F,/C,/!ped-up! F,,/C,/F,/A,/!<(! F,/A,/F,/C,/ | %163
!ped! F,,/B,,/D,/F,/ D,/!mf!F,/B,/!<)!D/ B,/!>(!C/!mp!^E/G/!ped-up! ^A,/C/F/^A/!>)! | %164
!ped! F,/^A,/C/F/ C/F/C/A,/!ped-up!!ped! D,/F,/A,/D/ A,/D/!mf!A,/F,/!ped-up! | %165
!ped! C,/^E,/G,/B,/ G,/!mp!B,/!ped-up!G,/E,/!ped! C,/E,/G,/B,/ G,/B,/!p!G,/E,/!ped-up! | %166
!ped! F,,/C,/F,/^A,/ F,/A,/F,/C,/!ped-up!!ped! F,,/C,/F,/A,/ F,/A,/F,/C,/!ped-up! | %167
!ped! z F,^A,!ped-up!C!ped! z E!mp!=DC!ped-up! |!ped! B,=D,F,B,!ped-up!!ped! F,=A,,D,F,!ped-up! | %169
!ped! =G,B,,=D,G,!ped-up!!ped! =F,B,,D,B,,!ped-up! | %170
!ped! =C,!mf!E,,=G,,C,!ped-up!!ped! _B,,=D,,E,,B,,!ped-up! | %171
!ped! [A,,,A,,]A,,C,E,!ped-up!!ped! =G,C,E,C,!ped-up! | %172
!ped! =D,=F,,A,,D,!ped-up!!ped! =C,!f!F,,A,,^C,!ped-up! | %173
!ff!!ped! [B,,,B,,]2 [^DF]4!ped-up!!ped! [B,=D^E][B,D^E] | %174
 [G,B,=D^E][G,B,DE]!ped-up! .[A,C=E]>.^D [=G,^A,CE]2 [B,=D^E^G]2 | %175
!ped! [=D,,=D,]2[K:treble] [FA]4!ped-up!!ped! [=D=F^G][DFG] | %176
 [=B,D=F^G][B,DFG]!ped-up! .[=CE=G]>.F [^A,^CEG]2 [=D=F^GB]2 | %177
[K:bass]!ped! [=F,,=F,]2[K:treble] [A=c]4!ped-up! [=FGB][FGB] | %178
[=D=FGB][DFGB] .[_E=G_B]>.A!>(! [=EG_B][EGB] [_EFA][EFA] | %179
 [=C_E=F_A][CEFA] .[_DFA]>!mp!.=G [=B,=DFA][B,DFA][^A,^CEG][A,CEG] | %180
 [^A,C_E=G][A,CEG] .[B,^D^F]>.^E [DF][DF][=D^E][DE]!>)! | %181
[K:bass]!p! =G, E,G,^A,[K:treble] CE/!mp!F/ =GE |!p! cB/^A/ B!mp!^G e2 E z | %183
 z!p! =G,^A,C E=G/!mp!=A/ _BG | e=d/c/!mf! .d.B =g2 =G z | [_e=g]7/2 [=c_a]/ [eg]>_B [eg]>B | %186
 [_e=g]7/2 [=c_a]/ [eg]>_B [eg]>B | [=c_a]7/2 [_e=g]/ [ca]>[eg] [ca]>[eg] | %188
 [=c_a]7/2 [_e=g]/ [ca]>[eg] [ca]>g |!ped! [_A=c^f]8- | [Acf]2!pp! [_A=cf]2 [Acf]2 [Acf]2!ped-up! | %191
!pp!!ped! [=DF=A]/4=c/4[DFA]/4c/4[DFA]/4c/4[DFA]/4c/4 [DFA]/4c/4[DFA]/4c/4[DFA]/4c/4[DFA]/4c/4 [DFA]/4c/4[DFA]/4c/4[DFA]/4c/4[DFA]/4c/4 [DFA]/4c/4[DFA]/4c/4[DFA]/4c/4[DFA]/4c/4!ped-up! | %192
!ped! [=DF=A]/4=c/4[DFA]/4c/4[DFA]/4c/4[DFA]/4c/4 [DFA]/4c/4[DFA]/4c/4[DFA]/4c/4[DFA]/4c/4 [DFA]/4c/4[DFA]/4c/4[DFA]/4c/4[DFA]/4c/4 [DFA]/4c/4[DFA]/4c/4[DFA]/4c/4[DFA]/4c/4!ped-up! | %193
!ped! [=DF=A]/4=c/4[DFA]/4c/4[DFA]/4c/4[DFA]/4c/4 [DFA]/4c/4[DFA]/4c/4[DFA]/4c/4[DFA]/4c/4 [DFA]/4c/4[DFA]/4c/4[DFA]/4c/4[DFA]/4c/4 [DFA]/4c/4[DFA]/4c/4!p![DFA]/4c/4[DFA]/4c/4!ped-up! | %194
 [=DFA=c]8- |!ped! [DFAc]2 z2 z2 z!p! =d!ped-up! |!ped! .=d4 .d4!ped-up! |!ped! =g8!ped-up! | %198
!ped! c4!ped-up!!ped! =d3!ped-up! e |!ped! _B8!ped-up! |!ped! A4 =d3 d!ped-up! | %201
!ped! e4 =d4!ped-up! |!ped! ^c6!ped-up! (3c=de |!ped! =d6!ped-up!!ped! x2!ped-up! | %204
!ped! =g/4b/4g/4b/4g/4b/4g/4b/4 g/4b/4g/4b/4g/4b/4g/4b/4 g/4b/4g/4b/4g/4b/4g/4b/4 g/4b/4g/4b/4g/4b/4g/4b/4!ped-up! | %205
 =g!p! =G,_B,C E!mp!=G/A/ BG | %206
!ped! z/4!ppp! =b/4=g/4b/4g/4b/4g/4b/4 g/4b/4g/4b/4g/4b/4g/4b/4 g/4b/4g/4b/4g/4b/4g/4b/4 g/4b/4g/4b/4g/4b/4g/4b/4!ped-up! | %207
 =g!p! _B,_DE =G!mp!_B/=c/ _dB | %208
!ped! z/4!ppp! =d'/4_b/4d'/4b/4d'/4b/4d'/4 b/4d'/4b/4d'/4b/4d'/4b/4d'/4 b/4d'/4b/4d'/4b/4d'/4b/4d'/4 b/4d'/4b/4d'/4b/4d'/4b/4d'/4!ped-up! | %209
 _b!p! _B,_DE =G!mp!_B/=c/ _dB | %210
!ped! z/4!ppp! =d'/4_b/4d'/4b/4d'/4b/4d'/4 b/4d'/4b/4d'/4b/4d'/4b/4d'/4 b/4d'/4b/4d'/4b/4d'/4b/4d'/4 b/4d'/4b/4d'/4b/4d'/4b/4d'/4!ped-up! | %211
 z!p! ^CE=G ^A!mp!c/^d/ e!p!c | %212
!p!!ped! z/4!ppp! ^e/4c/4e/4c/4e/4c/4e/4 c/4e/4c/4e/4c/4e/4c/4e/4 c/4e/4c/4e/4c/4e/4c/4e/4 c/4e/4c/4e/4c/4e/4c/4e/4!ped-up! | %213
!pp!!ped! z/4!ppp! f/4d/4f/4d/4f/4d/4f/4 d/4f/4d/4f/4d/4f/4d/4f/4 d/4f/4d/4f/4d/4f/4d/4f/4 d/4f/4d/4f/4d/4f/4d/4f/4!ped-up! | %214
!pp!!ped! z/4!ppp! g/4^e/4g/4e/4g/4e/4g/4 e/4g/4e/4g/4e/4g/4e/4g/4 e/4g/4e/4g/4e/4g/4e/4g/4 e/4g/4e/4g/4e/4g/4e/4g/4!ped-up! | %215
!ped! =e/4g/4e/4g/4e/4g/4e/4g/4 e/4g/4e/4g/4e/4g/4e/4g/4 e/4g/4e/4g/4e/4g/4e/4g/4 e/4g/4e/4g/4e/4g/4e/4g/4!ped-up! | %216
!pp!!ped! z/4!ppp! f/4d/4f/4d/4f/4d/4f/4 d/4f/4d/4f/4d/4f/4d/4f/4 d/4f/4d/4f/4d/4f/4d/4f/4 d/4f/4d/4f/4d/4f/4d/4f/4!ped-up! | %217
!pp!!ped! z/4!ppp! =a/4f/4a/4f/4a/4f/4a/4 f/4a/4f/4a/4f/4a/4f/4a/4 f/4a/4f/4a/4f/4a/4f/4a/4 f/4a/4f/4a/4f/4a/4f/4a/4!ped-up! | %218
!pp!!ped! z/4!ppp! ^a/4f/4a/4f/4a/4f/4a/4 f/4a/4f/4a/4f/4a/4f/4a/4 f/4a/4f/4a/4f/4a/4f/4a/4 f/4a/4f/4a/4!pp!f/4a/4f/4a/4!ped-up! | %219
!mp!!ped! z/4!pp! b/4g/4b/4!ppp!g/4b/4g/4b/4 g/4b/4g/4b/4g/4b/4g/4b/4 g/4b/4g/4b/4g/4b/4g/4b/4!ped-up! g z | %220
[K:bass]!p! (6:4:6F,,^^F,,G,,A,,^A,,B,, (6:4:6^B,,C,D,E,^E,^F, | %221
 (6:4:6F,,^^F,,G,,A,,^A,,B,, (6:4:6^B,,C,D,E,^E,^F, | %222
 (6:4:6F,,^^F,,G,,A,,^A,,B,, (6:4:6A,,B,,^B,,C,=D,^D, | %223
{/F,,} (6:4:6E,^E,F,^^F,G,A, (6:4:6^A,B,^B,CD=E | %224
 (6:4:6F,,^^F,,G,,A,,^A,,B,, (6:4:6^B,,C,D,E,^E,^F, | %225
 (6:4:6F,,^^F,,G,,A,,^A,,B,, (6:4:6^B,,C,D,E,^E,^F, | %226
 (6:4:6G,,A,,^A,,B,,C,=D, (6:4:6A,,B,,^B,,C,^D,E, | %227
{/G,,} (6:4:6D,E,^E,F,^^F,G, (6:4:6A,^A,B,^B,C=D | %228
!ped! (6:4:6F,,^^F,,G,,A,,^A,,B,,!ped-up! (6:4:6^B,,C,D,E,^E,^F, | %229
!ped! (6:4:6G,,^A,,B,,^B,,C,=D,!ped-up! (6:4:6^D,E,^E,F,^^F,G, | %230
!ped! (6:4:6^A,,^B,,C,=D,^D,E,!ped-up! (6:4:6^E,^F,^^F,G,=A,^A, | %231
!ped! (6:4:6^B,,C,D,E,^E,F,!ped-up! (6:4:6^^F,G,A,^A,=B,^B, | %232
!ped! (6:4:6C,=D,^D,E,F,=G, (6:4:6E,!ped-up!F,G,^G,=A,^A, | %233
!ped! (6:4:6D,E,^E,F,G,A,!ped-up! (6:4:6F,G,A,^A,=B,^B, | %234
!ped! (6:4:6^E,F,^^F,G,^A,B,!ped-up! (6:4:6G,A,B,^B,C=D | %235
!ped! (6:4:6^^F,G,=A,^A,^B,C!ped-up! (6:4:6=A,=B,C=D^DE | %236
!ped! (6:4:6A,^A,B,=C=D^D (6:4:6=A,^A,B,C=D^D!ped-up! | %237
!ped! (6:4:6F,^^F,G,A,^A,B, (6:4:6^F,^^F,G,=A,^A,B,!ped-up! | %238
!ff!!ped! (3B,,,/D,,/F,,/.C, (3B,,/D,/F,/.C[K:treble] (3B,/D/F/.c[K:bass] (3B,,/D,/F,/.C | %239
 (3B,,,/D,,/F,,/.C, (3B,,/D,/F,/.C[K:treble] (3B,/D/F/.c[K:bass] (3B,,/D,/F,/.C | %240
 .[B,,,D,,F,,]!ped-up![K:treble]!ped! [DFA]2 [DFA]2 [DFA]2 [DFA]- | %241
 [DFA] z!ped-up![K:bass]!ff!!ped! [B,,,B,,]2 [B,,,B,,]2 [B,,,B,,]2!ped-up! | %242
!ped! E,D,C,B,,!ped-up! ^A,,B,,G,,E,, |!ped! C,G,,C,E,!ped-up!!ped! F,G,A,C,!ped-up! | %244
 A,G,F,D, G,B,,E,G,, | B,,F,,B,,D, F,D,A,F, |!ped! E,D,C,B,,!ped-up! G,^^F,G,B, | %247
!ped! DCB,^A,!ped-up! =A,F,A,G, | F,C,A,,F,, B,A,F,D, | CG,E,C, B,F,D,B,, | %250
!ped! E,D,C,B,,!ped-up! ^A,,B,,G,,E,, |!ped! C,G,,C,E,!ped-up!!ped! F,^A,,C,F,!ped-up! | %252
 B,D,F,B, C^A,CF, | DF,=A,B, DB,A,F, | E!mf!B,G,E, G,CEC | E^A,CE DF,B,D, | G,B,,D,G, F,^A,,C,F, | %257
!mf! (3B,,F,B, (3DB,F, (3B,,!mp!F,B,!<(! (3DB,F, | %258
 (3E,G,!<)!B, (3EB,G,!>(! (3E,^A,C (3D,!p!F,B,!>)! | (3B,,D,F, (3B,F,D, (3G,,B,,!mp!D, (3G,D,B,, | %260
 (3F,,C,F, (3^A,F,C, (3F,,C,F, (3A,F,C, | (3B,,F,B, (3D!p!B,F, (3B,,F,B,!<(! (3D!mp!B,F, | %262
 (3E,G,!<)!B, (3EB,G, (3E,!p!^A,C (3D,F,B, | (3B,,D,F, (3B,F,D, (3G,,B,,!mp!D, (3G,D,B,, | %264
 (3F,,C,F, (3^A,F,C, (3F,,C,F, (3A,F,C, | (3B,,F,B, (3DB,F, (3B,,!p!F,B, (3DB,F, | %266
 (3=A,D,F, (3A,F,D, (3F,B,,!mp!D, (3F,D,B,, | (3E,=G,,B,, (3E,B,,G,, (3B,,=D,,G,, (3B,,G,,B,, | %268
 (3=C,=G,,C, (3E,C,G,, (3E,C,E, (3=G,E,C, | (3=G,E,G, (3B,G,=D, (3B,,D,G, (3B,G,D, | %270
 (3F,B,,^D, (3F,D,B,, (3A,D,F, (3A,F,D, | (3G,B,,E, (3G,E,B,, (3C,E,,G,,!mf! (3C,G,,E,, | %272
 (3A,,F,,A,, (3C,A,,F,,!f! (3B,,F,,B,, (3D,B,,F,, | %273
!ped! (3[E,,G,,B,,E,]E,E, (3E,E,E, (3E,E,E, (3E,E,E,!ped-up! | %274
!ped! (3[E,,G,,B,,E,]E,E, (3E,E,E, (3E,E,E, (3E,E,E,!ped-up! | %275
!mf!!ped! E,,/4E,/4E,,/4E,/4E,,/4E,/4E,,/4E,/4 E,,/4E,/4E,,/4E,/4E,,/4E,/4E,,/4E,/4 E,,/4E,/4E,,/4E,/4E,,/4E,/4E,,/4E,/4!ped-up! E,,/4E,/4E,,/4E,/4E,,/4E,/4E,,/4E,/4 | %276
!ped! E,,/4E,/4E,,/4E,/4E,,/4E,/4E,,/4E,/4 E,,/4E,/4E,,/4E,/4E,,/4E,/4E,,/4E,/4!ped-up! E,, z [^A,CE=G]2 | %277
!f!!ped! (3[E,,G,,B,,E,]E,E, (3E,E,E, (3E,E,E, (3E,E,E,!ped-up! | %278
!ped! (3[E,,G,,B,,E,]E,E, (3E,E,E, (3E,E,E, (3E,E,E,!ped-up! | %279
!mf!!ped! C,,/4C,/4C,,/4C,/4C,,/4C,/4C,,/4C,/4 C,,/4C,/4C,,/4C,/4C,,/4C,/4C,,/4C,/4 C,,/4C,/4C,,/4C,/4C,,/4C,/4C,,/4C,/4!ped-up! C,,/4C,/4C,,/4C,/4C,,/4C,/4C,,/4C,/4 | %280
!ped! C,,/4C,/4C,,/4C,/4C,,/4C,/4C,,/4C,/4 C,,/4C,/4C,,/4C,/4C,,/4C,/4C,,/4C,/4!ped-up! C,, z [^^F,^A,CE]2 | %281
[K:treble]!ped! G/^^F/^F/^E/=E/D/=D/C/=C/B,/^A,/=A,/!ped-up! .[G,G] z | %282
 [G,E]>[B,F] [G,E]>[B,F] [G,E]>[B,F] [G,E]>[B,F] | %283
!ped! [Ee]/^d/=d/c/=c/B/^A/=A/G/=G/F/=F/!ped-up![K:bass] .[E,B,E] z | %284
 [E,=C]>[=G,=D] [E,C]>[G,D] [E,C]>[G,D] [E,C]>[G,D] | %285
[K:treble]!ped! z/ f/=f/e/d/=d/c/=c/B/^A/ z!ped-up![K:bass] .[E,^A,CE] z | %286
[K:treble]!ped! =g/f/=f/e/d/=d/c/=c/B/^A/ z!ped-up![K:bass] .[E,^A,CE] z | %287
[K:treble]!mf!!ped! e/d/e/d/ e/d/e/d/ e/d/e/d/ e/d/e/d/ | %288
 e/d/e/d/!f! e/d/e/d/!ff! e/d/e/d/ e/d/e/d/!ped-up! | %289
!ff! e[K:bass] E,=G,^A,[K:treble] CE/F/ .=G.E | cB/^A/ .B.^G e2 E z | dc/^B/ c2 dc/B/ c2 | %292
!mf!!<(! ed/c/ B/!f!d/f/!ff!a/!<)! c'2!f! b z |[K:bass] E8 | =A,F,D,A, F,D,A,F, | E8 | %296
 =A,F,D,A, F,D,A,F, | ^A,=G,E,A, G,E,A,G, | =A,F,D,A, F,D,A,F, | ^A,=G,E,C, A,G,E,C, | %300
!ped! [=C,E,=G,^A,]2 [C,E,G,A,]2 [C,E,G,A,]2 [C,E,G,A,]2!ped-up! | %301
!ff! z3/2 [^A,^A]/ [B,EGB]2 [B,,,B,,]2 [A,CE=G]2 | [B,,,B,,]2 [=A,=DF=A]>^G [=C^DFA]2 [B,=DF^G]2 | %303
 z3/2 [F,F]/ [=G,=CE=G]2 [B,,,B,,]2 [^F,A,C_E]2 | %304
 [B,,,B,,]2 [=F,_B,=D=F]>=E [^G,=B,DF]2 [=G,^A,CE]2 | %305
 [B,,,B,,]2 [F,A,=C^D][^E,^G,B,=D] [E,=G,^A,^C]2 [^D,F,=A,=C]2 | %306
!ped! [B,,,B,,]2 [^G,B,=D=F][=G,^A,CE] [^F,=A,=C^D]2 [^E,^G,B,=D]2!ped-up! | %307
 [B,,,B,,]2 [^A,CE=G][=A,=CDF] [^G,B,=D^E]2 [=G,^A,CE]2 | %308
 [^F,=A,=C^D]2 [^E,G,B,=D][E,=G,^A,^C] [^D,F,=A,=C]2 [=D,^E,^G,B,]2 | %309
!mp!!ped! [B,,C,E,=G,^A,][B,,C,E,G,A,][B,,C,E,G,A,][B,,C,E,G,A,] [B,,C,E,G,A,][B,,C,E,G,A,][B,,C,E,G,A,][B,,C,E,G,A,]!ped-up! | %310
!ped! [B,,C,E,=G,^A,][B,,C,E,G,A,][B,,C,E,G,A,][B,,C,E,G,A,] [B,,C,E,G,A,][B,,C,E,G,A,][B,,C,E,G,A,][B,,C,E,G,A,]!ped-up! | %311
!ped! [B,,C,E,=G,^A,][B,,C,E,G,A,][B,,C,E,G,A,][B,,C,E,G,A,] [B,,C,E,G,A,][B,,C,E,G,A,][B,,C,E,G,A,][B,,C,E,G,A,]!ped-up! | %312
!ped! [B,,C,E,=G,^A,][B,,C,E,G,A,][B,,C,E,G,A,][B,,C,E,G,A,] [B,,C,E,G,A,][B,,C,E,G,A,][B,,C,E,G,A,][B,,C,E,G,A,]!ped-up! | %313
!ped! [B,,C,E,=G,]/^A,/[B,,C,E,G,]/A,/ [B,,C,E,G,]/A,/[B,,C,E,G,]/A,/ [B,,C,E,G,]/A,/[B,,C,E,G,]/A,/ [B,,C,E,G,]/A,/[B,,C,E,G,]/A,/!ped-up! | %314
!ped! [B,,C,E,=G,]/^A,/[B,,C,E,G,]/A,/!p! [B,,C,E,G,]/A,/[B,,C,E,G,]/A,/ [B,,C,E,G,]/A,/[B,,C,E,G,]/A,/ [B,,C,E,G,]/A,/[B,,C,E,G,]/A,/!ped-up! | %315
!ped! [B,,C,E,=G,]/^A,/[B,,C,E,G,]/A,/!pp! [B,,C,E,G,]/A,/[B,,C,E,G,]/A,/ [B,,C,E,G,]/A,/[B,,C,E,G,]/A,/ [B,,C,E,G,]/A,/[B,,C,E,G,]/A,/!ped-up! | %316
!ped! [B,,C,E,=G,]/^A,/[B,,C,E,G,]/A,/ [B,,C,E,G,]/A,/[B,,C,E,G,]/A,/ [B,,C,E,G,]/A,/[B,,C,E,G,]/A,/ [B,,C,E,G,]/A,/[B,,C,E,G,]/A,/!ped-up! | %317
!ped! [B,,E,]/!<(!=G,/[B,,E,]/G,/[B,,E,]/G,/[B,,E,]/G,/[B,,E,]/G,/[B,,E,]/G,/[B,,E,]/!<)!G,/[B,,E,]/G,/!ped-up! | %318
!p!!ped! [B,,E,]/=G,/[B,,E,]/G,/[B,,E,]/G,/[B,,E,]/G,/[B,,E,]/G,/!pp![B,,E,]/G,/[B,,E,]/G,/[B,,E,]/G,/!ped-up! | %319
!pp!!ped! [B,,E,F,]8!ped-up! |!ped! [B,,D,F,]8!ped-up!!ped!!ped-up! |!p!!ped! [E,,E,]8-!ped-up! | %322
!ped! [E,,E,]4!ped-up!!ped! [G,,E,]4!ped-up! |!ped! [C,E,G,]8- | %324
 [C,E,G,]4!ped-up! (3[B,,E,G,]2 [C,E,A,]2 [G,,E,B,]2 |!ped! [G,,E,]8!ped-up! | %326
!ped! [A,,E,]4!ped-up!!ped! !arpeggio![G,,E,B,]4!ped-up! |!ped! [F,,C,]8-!ped-up! | %328
 [F,,C,A,]4!mp!!ped! [F,A,C]4!ped-up! |!mp!!ped! !arpeggio![F,,C,^A,]8- | [F,,C,A,]4!ped-up! E4 | %331
!ped! [=A,,F,B,]8- | [A,,F,B,]4!ped-up! (3B,2 C2 D2 |!ped! [G,B,E]8!ped-up! | %334
!ped! C4!ped-up!!ped! !arpeggio![G,,B,]3 [B,,G,]!ped-up! |!ped! [B,,-D,-G,]8!ped-up! | %336
!ped! [B,,D,F,]4!ped-up! B,3 C |!mp!!ped! [A,,D,F,]8!ped-up! | B,4!ped! [G,C]4!ped-up! | %339
!ped! [F,A,C]8- | [F,A,C]4!ped-up! B,3 C |!ped! [D,F,A,]8!ped-up! | B,4!ped! [E,G,C]4!ped-up! | %343
!ped! z8 | z4!ped-up! C4 |!ped! [E,G,B,-]8!ped-up! |!ped! B,4!ped-up! (3B,2 C2 D2 | %347
!ped! !arpeggio![C,G,]8!ped-up! |!ped! [D,F,^B,D]4!ped-up!!ped! [E,G,C]4!ped-up! | %349
!ped! B,8!ped-up! |!ped! [E,^A,C]7!ped-up! [B,,D,F,B,] |!ped! [B,,D,F,B,]8- | %352
 [B,,D,F,B,]4!ped-up!!p! B,,3 B, |!pp!!ped! [E,=G,B,]8!ped-up! |!ped! ^A,7!ped-up! =A, | %355
!ped! [F,A,]8- | [F,A,]8!ped-up! |!ped! [=G,_B,=D]8!ped-up! |!ped! ^C7!ped-up! =C |!ped! [A,=C]8- | %360
 [A,C]8!ped-up! |"^un poco cresc."!ped! [_B,_D=F]8!ped-up! |!ped! E7!ped-up! ^D | D8 | %364
!ped! [E,G,B,E]8!ped-up! |!ped! x4 C4!ped-up! |!ped! B,4 A,4!ped-up! |!ped! G,8 | F,4!ped-up! B,4 | %369
!ped! [G,B,]8!ped-up! |!mp!!ped! [G,B,]6!ped-up!!mp! [G,C]2 |!ped! x8!ped-up! | %372
!ped! [F,B,]8!ped-up! |!mp!!ped! x8!ped-up! |!mp!!ped! x8!ped-up! |!mf!!ped! x8!ped-up! | %376
!ped! [F,,,F,,]2 [F,,^A,,C,F,]2 [F,,A,,C,F,]2 [F,,A,,C,F,]2!ped-up! | %377
!ped! [B,,,D,,F,,B,,]2 [B,,,D,,F,,B,,]2 [B,,,D,,F,,B,,]2 [B,,,D,,F,,B,,]2!ped-up! | %378
!ff!!ped! [B,,F,B,]8!ped-up! |!ff!!ped! [E,,B,,E,]8 | x8!ped-up! |!ff!!ped! [B,,,E,,B,,]8!ped-up! | %382
!ff!!ped! [C,,G,,C,]8 | x8!ped-up! | (3[B,,,G,,B,,]4 [C,,A,,C,]4 [G,,,E,,G,,]4 | %385
!ped! [G,,E,G,]8!ped-up! |!ped! [A,,E,A,]8!ped-up! |!ff!!ped! [B,,,E,,B,,]8!ped-up! | %388
!ff!!ped!!8vb(! [F,,,F,,]8!8vb)!!ped-up! |!ff!!ped!!8vb(! [F,,,F,,]8!8vb)!!ped-up! | %390
!ff!!ped! [A,,,F,,A,,]8!ped-up! |!ff!!ped! [F,,^A,,F,]8 | %392
 [F,,^A,,C,F,][F,,A,,C,F,][F,,A,,C,F,][F,,A,,C,F,] [F,,A,,C,F,][F,,A,,C,F,][F,,A,,C,F,][F,,A,,C,F,]!ped-up! | %393
!ped! [F,,C,F,]8!ped-up! |!ped! [A,,D,A,]8 | %395
 [A,,D,F,B,]!mf![A,,D,F,B,][A,,D,F,B,][A,,D,F,B,] [A,,D,F,B,]!f![A,,D,F,B,][A,,D,F,B,][A,,D,F,B,]!ped-up! | %396
 (3[A,,,A,,]4 [A,,,E,,A,,]4 [A,,B,,D,]4 |!ped! [G,,B,,E,]8!ped-up! |!ff!!ped! [E,,G,,C,]8!ped-up! | %399
!ff!!ped! [G,,,E,,G,,]6!ped-up! [B,,,E,,G,,B,,]2 |!ped! [B,,,E,,G,,B,,]8!ped-up! | %401
!ff!!ped! [B,,,F,,B,,]8!ped-up! |!ped! [D,F,]6!ped-up!!ff! [A,,D,F,A,]2 | %403
!ff!!ped! [A,,D,F,A,]8!ped-up! |!ff!!ped! [A,,D,F,A,]8!ped-up! |!ff!!ped! [G,,E,G,]8!ped-up! | %406
!ff!!ped! [F,,C,F,]8 | x8!ped-up! |!ff!!ped! [G,,B,,E,]6!ped-up!!ff! [F,,A,,C,F,]2 | %409
!ff!!ped! [F,,A,,C,F,]8!ped-up! |!ped! [F,,B,,F,]8!ped-up! |!ped! [E,,C,E,]8!ped-up! | %412
!ff!!ped! [D,,^A,,D,]8 | %413
 [D,,^^F,,^A,,D,][D,,F,,A,,D,][D,,F,,A,,D,][D,,F,,A,,D,] [D,,F,,A,,D,][D,,F,,A,,D,][D,,F,,A,,D,][D,,F,,A,,D,]!ped-up! | %414
!ff!!ped! [D,,^A,,D,]8!ped-up! |!ff!!ped! [E,,B,,E,]8!ped-up! |!ped! [F,,B,,F,]8!ped-up! | %417
!ff! (3[B,,,F,,B,,]4 [C,,F,,A,,C,]4 [B,,,F,,B,,]4 |!ped! [C,,G,,C,]8!ped-up! | %419
!ff!!ped! [B,,,G,,B,,]8!ped-up! |!ff!!ped! [A,,,E,,A,,]8!ped-up! |!ff!!ped! [G,,,E,,G,,]8!ped-up! | %422
!ff!!ped! [A,,,F,,A,,]8!ped-up! |!ff!!ped! [^A,,,E,,G,,]8!ped-up! |!ff!!ped! [B,,,E,,F,,B,,]8 x4 | %425
 x8!ped-up! |!fff!!ped! [E,,G,,B,,E,]8!ped-up! |!ped! [E,,A,,C,E,]8!ped-up! | %428
!ped! [E,,G,,B,,E,]8!ped-up! |!ped! [E,,A,,C,E,]8!ped-up! | %430
!ped! (6:4:6z [E,G,B,] z z z z (6:4:6z G, z z z z!ped-up! | %431
!ped! (6:4:6[B,,,E,,G,,B,,] z [B,,E,G,B,] z [B,EGB] z (6:4:6[E,,G,,B,,E,] z [E,G,B,E] z[K:treble] [EGBe] z | %432
 [EGBe]2!ped-up! z2[K:bass]!ped! [E,G,B,E]7/2 [E,G,B,E]/ | %433
 [E,G,B,E]2!ped-up! z2!ped! [E,,,E,,]7/2 [E,,,E,,]/ | !fermata![E,,,E,,]8!ped-up! |] %435
V:3
 x2 | x6 | x4 (3B,,C,G,, | x6 | F,,6 | x6 | x4 A,,2 | G,,2 E,,2 G,,>[E,,B,,] | B,,4 B,,>A,, | x6 | %10
 x6 | x6 | x6 | x6 | x6 | F,,4 F,,2 | x6 | x6 | x6 | x6 | x6 | x6 | x6 | x6 | [B,,,B,,]6 | %25
 z2 =D,2 C,2 | =D,6 | x6 | =F,6 | x6 | x6 | A,,6 | B,,4 B,,2 | x6 | [B,,,B,,]2 x4 | [G,,,G,,]2 x4 | %36
 !>![F,,,F,,]2 x4 | [B,,,B,,]2 x4 || %38
[M:9/8] z!mp! [E,,G,,B,,E,][E,,G,,B,,E,] [E,,G,,B,,E,][E,,G,,B,,E,][E,,G,,B,,E,] z!mp! [G,,E,][G,,E,] | %39
 z!mp! [C,,E,,G,,C,][C,,E,,G,,C,] [C,,E,,G,,C,][C,,E,,G,,C,][C,,E,,G,,C,] B,,[C,E,]!arpeggio![G,,E,] | %40
 z!mp! [G,,E,][G,,E,] z!mp! [A,,E,][A,,E,] z!mp! [G,,E,][G,,E,] | %41
 z!mp! [F,,C,F,][F,,C,F,] z!mp! [F,,C,F,][F,,C,F,] z!mp! [F,,A,,C,F,][F,,A,,C,F,] | %42
 z!mp! [F,,^A,,C,F,][F,,A,,C,F,] [F,,A,,C,F,][F,,A,,C,F,][F,,A,,C,F,] z!mp! [F,,A,,C,F,][F,,A,,C,F,] | %43
 z!mp! [=A,,D,F,A,][A,,D,F,A,] [A,,D,F,A,][A,,D,F,A,][A,,D,F,A,] !arpeggio![A,,D,F,][D,F,][F,A,] | %44
 !arpeggio![G,B,]!mp! [G,,B,,E,G,][G,,B,,E,G,] z!mp! [E,,G,,C,E,][E,,G,,C,E,] z [G,,B,,E,][B,,E,] | %45
 z!mp! [B,,D,][B,,D,] z!mp! [B,,D,][B,,D,] z [G,,B,,D,][G,,B,,D,] | %46
 z!mp! [A,,D,F,][A,,D,F,] z!mp! [A,,D,F,][A,,D,F,] z!mp! [G,,C,E,G,][G,,C,E,G,] | %47
 z!mp! [F,,A,,C,F,][F,,A,,C,F,] [F,,A,,C,F,][F,,A,,C,F,][F,,A,,C,F,] z [G,,B,,E,][G,,B,,E,] | %48
 z!mp! [F,,A,,D,F,][F,,A,,D,F,] z!mp! [F,,A,,D,F,][F,,A,,D,F,] z!mp! [E,,G,,C,E,]!mp![E,,G,,C,E,] | %49
 z!mp! [D,,^^F,,^A,,D,][D,,F,,A,,D,] [D,,F,,A,,D,][D,,F,,A,,D,][D,,F,,A,,D,] z!mp! [D,,F,,A,,D,][D,,F,,A,,D,] | %50
 z!mp! [E,,G,,B,,E,][E,,G,,B,,E,] [F,,=A,,D,F,][F,,A,,D,F,][F,,A,,D,F,] !arpeggio![B,,D,F,][F,A,][F,A,] | %51
 [G,C]!mp![C,E,G,][C,E,G,] z!mp! [D,F,^B,][D,F,B,] z!mp! [E,G,][E,G,] | %52
 z!mp! [F,,D,F,][F,,D,F,] z!mp! [F,B,][F,B,] [E,F,^A,][E,F,A,]!mp![D,F,] | %53
 z!mp! [B,,D,F,][B,,D,F,] [B,,D,F,][B,,D,F,][B,,D,F,] z [B,,D,F,=A,][B,,D,F,A,] || %54
[M:3/4] =G,2 F,4 || %55
[M:9/8] [=D,F,][D,F,][D,F,] [D,F,A,][D,F,A,][D,F,A,] z [D,F,A,=C]!mp![D,F,A,C] || %56
[M:3/4] _B,2 A,4 ||[M:9/8] [=F,A,][F,A,][F,A,] [F,A,=C][F,A,C][F,A,C] z [F,A,C_E]!mp![F,A,CE] || %58
[M:3/4] x6 ||[M:9/8] x9 ||[M:3/4] x6 ||[M:9/8] x6 z [D,F,][D,F,] ||[M:3/4] E,2 =D,2 C,2 || %63
[M:9/8] x6 x x2 ||[M:3/4] x6 ||[M:9/8] =C6 =F,,2 z ||[M:3/4] x6 ||[M:9/8] x9 || %68
[M:3/4] A,,4- [A,,C,]2 ||[M:9/8] [B,,D,]6- [B,,D,]2 z ||[M:3/4] x6 | x6 | x6 | x6 | F,,6 | %75
 =A,,4 A,,2 | G,,2 E,,2 x2 | x6 | x6 | x6 | x6 ||[M:4/4] x4[K:treble] x4 | x8 | x8 | E8 | E8 | E8 | %87
 E8 | x8 | x8 |[K:bass] x8 | x8 | x8 | x8 | B,,8- | B,,8 | x8 | x11/2[K:treble] x5/2 | E8- | E8 | %100
[K:bass] x8 | x2[K:treble] x6 | x8 | x8 | x8 | x8 | x8 | x8 | x8 | x8 | x8 | x8 | %112
 x[K:bass] x3[K:treble] x4 | x8 | x8 | x8 | x[K:bass] x3[K:treble] x4 | x8 | x8 | x8 | x8 | x8 | %122
 x[K:bass] x3[K:treble] x4 | x8 |[K:bass] B,,4- B,, z z2 | B,,4- B,, z z2 | B,,4- B,, z z2 | %127
 x4[K:treble] x4 |[K:bass] B,,4- B,, z z2 | B,,4- B,, z z2 | B,,4- B,, z z2 | x4[K:treble] x4 | %132
[K:bass] B,,4- B,, z z2 | B,,4- B,, z z2 | B,,4 z4 | C,4- C, z z2 | C, z z2 C, z z2 | %137
 z3/2 ^A, z ^A[K:treble] z ^a z A/ |[K:bass] z3/2 ^A, z ^A[K:treble] z ^a x3/2 | x8 | %140
 x[K:bass] x7 | x8 | x8 | B,,4 x4 | G,,4 C,4 | E,2 z2 D,2 B,,2 | F,,4 z4 | B,,4 z4 | F,,4 z4 | %149
 C,,2 z2 F,,2 z2 | G,,2 z2 F,,2 z2 | B,,4 x4 | G,,4 C,4 | F,,2 z2 G,,2 G,,2 | ^A,,4 z4 | B,,4 z4 | %156
 B,,4 ^A,,2 F,,2 | D,,2 z2 C,,2 z2 | F,,2 z2 z4 | B,,2 z2 B,2 ^A,2 | F,4 D,4 | C,4 z4 | %162
 F,,2 z2 z4 | F,,2 z2 B,2 ^A,2 | F,4 D,4 | C,4 z4 | F,,2 z2 z4 | E,2 z2 C,2 z2 | B,,2 z2 F,,4 | %169
 =G,,2 z2 =F,,2 =D,,2 | =C,,4 _B,,,4 | x4 =G,,2 E,,2 | =D,,4 =C,,4 | %173
 z2 [A,B,][A,B,][A,B,][A,B,] G,2 | x8 | z2[K:treble] [=C=D][CD][CD][CD] B,2 | x8 | %177
[K:bass] z2[K:treble] [_E=F][EF][EF][EF] =D2 | x4 ^C2 =C2 | x8 | x4 [=A,^B,][A,B,][^G,B,][G,B,] | %181
[K:bass] x4[K:treble] x4 | x8 | x8 | x8 | x8 | x8 | x8 | x8 | x8 | x8 | x8 | x8 | x8 | x8 | x8 | %196
 x8 | x8 | x8 | x8 | F8 | =G8 | A8 | %203
 =D2 z2!ppp! [fa]/4=c'/4[fa]/4c'/4[fa]/4c'/4[fa]/4c'/4 [fa]/4c'/4[fa]/4c'/4[fa]/4c'/4[fa]/4c'/4 | %204
 x8 | x8 | =d8 | x8 | =f8 | x8 | =f8 | x8 | ^G8 | ^B8 | c8 | x8 | B8 | =d8 | c8 | [c^e]6- [ce] z | %220
[K:bass] F,,4- F,, z z2 | F,,4- F,, z z2 | F,,4- F,, z z2 | x8 | F,,4- F,, z z2 | F,,4- F,, z z2 | %226
 F,,4- F,, z z2 | x8 | F,,4- F,, z z2 | F,,4- F,, z z2 | F,,4 z4 | G,,4 z4 | A,,4 ^A,,4 | %233
 B,,4 ^B,,4 | C,4 =D,4 | ^D,4 E,4 | =F,2 z2 F,2 z2 | B,,2 z2 B,,2 z2 | x4[K:treble] x2[K:bass] x2 | %239
 x11/3[K:treble] x2[K:bass] x7/3 | x[K:treble] x7 | x2[K:bass] x6 | E,,4 z4 | C,,4 F,,4 | %244
 A,,2 z2 G,,2 E,,2 | B,,,4 z4 | E,,4 z4 | B,,4 z4 | F,,2 z2 B,,2 z2 | C,2 z2 B,,2 z2 | E,,4 z4 | %251
 C,,4 F,,4 | B,,4 C,2 C,2 | D,4 z4 | E,3 z z4 | E,4 D,2 B,,2 | G,,2 z2 F,,2 z2 | B,,2 x6 | %258
 E,4 E,2 D,2 | B,,4 G,,4 | F,,2 z2 z4 | B,,4 z4 | E,4 E,2 D,2 | B,,4 G,,4 | F,,2 z2 z4 | B,,4 z4 | %266
 =A,,2 z2 F,,2 z2 | E,,2 z2 B,,,4 | =C,,2 z2 E,,2 z2 | =G,,2 z2 B,,2 z2 | F,,2 z2 A,,2 z2 | x8 | %272
 x8 | x8 | x8 | x8 | x8 | x8 | x8 | x8 | x8 |[K:treble] [G,D]2 x6 | x8 | x6[K:bass] x2 | x8 | %285
[K:treble] [E^Ac] z z2 z4[K:bass] |[K:treble] x6[K:bass] x2 |[K:treble] x8 | x8 | %289
 x/[K:bass] x3[K:treble] x9/2 | x8 | x8 | x8 |[K:bass] z E,=G,^A, CE/F/ .=G.E | B,,8 | %295
 z E,=G,^A, CE/F/ .=G.E | B,,8 | B,,8 | B,,8 | B,,4 B,,4 | x8 | [B,,,B,,]2 x2 z2 x2 | x8 | %303
 [B,,,B,,]2 x2 z2 x2 | x8 | x8 | x8 | x8 | x8 | x8 | x8 | x8 | x8 | x8 | x8 | x8 | x8 | x8 | x8 | %319
 x8 | x6!ppp! A,/G,/ G,/F,/ | x8 | x8 | x8 | x8 | x8 | x8 | x8 | x8 | x8 | x8 | x8 | x4 [F,A,]4 | %333
 x8 | [E,G,]4 E,4 | x8 | x8 | x8 | x8 | x8 | x4 G,4 | x8 | x8 | [D,^^F,^A,]8- | [D,F,A,]8 | x8 | %346
 [F,A,]4 [D,F,]4 | x8 | x7 F,,/D,/ | x7 E,,/D/ | x8 | x8 | x8 | x8 | x8 | =D,8- | D,4 =D,3 =D | %357
 x8 | [E,A,]8 | =F,8- | F,4!p! =F,3 =F | x8 | [=G,=C]8 | [D,F,A,-=C]4 [=F,A,B,]4 | x15/2 A,,/ | %365
 E,6 ^E,2 | !arpeggio![A,,C,F,]8 | [B,,D,]8- | [B,,D,]8 | E,2!p! E,2 E,2 E,2 | E,2!p! E,2 E,2 E,2 | %371
 [B,,,B,,]2!p! B,,2 B,,2 B,,2 | B,,2 B,,2-!mp! B,,2 B,,2 | [G,,,G,,]2!p! G,,2 G,,2 G,,2 | %374
 [G,,,G,,]2!p! G,,2!mp! G,,2!mf! G,,2 | [F,,,F,,]2!mp! F,,2 F,,2 F,,2 | x8 | x8 | %378
 z2!mp! [B,,,D,,F,,B,,]2 [B,,,D,,F,,B,,]2 [B,,,D,,F,,B,,]2 | %379
 z!mp! z [E,,G,,B,,E,][E,,G,,B,,E,] [E,,G,,B,,E,][E,,G,,B,,E,][E,,G,,B,,E,][E,,G,,B,,E,] | %380
 [E,,G,,B,,E,][E,,G,,B,,E,][E,,G,,B,,E,][E,,G,,B,,E,] [E,,G,,B,,E,][E,,G,,B,,E,][E,,G,,B,,E,][E,,G,,B,,E,] | %381
 z2 [G,,B,,E,G,][G,,B,,E,G,] [G,,B,,E,G,][G,,B,,E,G,][G,,B,,E,G,][G,,B,,E,G,] | %382
 z2 [C,E,][C,E,] [C,E,][C,E,][C,E,][C,E,] | %383
 [C,E,]!mf![C,E,][C,E,][C,E,] [C,E,]!f![C,E,][C,E,][C,E,] | x8 | %385
 z2 [G,,B,,E,G,][G,,B,,E,G,] [G,,B,,E,G,][G,,B,,E,G,][G,,B,,E,G,][G,,B,,E,G,] | %386
 z2 [A,,E,][A,,E,] [A,,E,][A,,E,][A,,E,][A,,E,] | %387
 z2 [G,,B,,E,][G,,B,,E,] [G,,B,,E,][G,,B,,E,][G,,B,,E,][G,,B,,E,] | %388
!8vb(! z2!8vb)! [F,,C,F,][F,,C,F,] [F,,C,F,][F,,C,F,][F,,C,F,][F,,C,F,] | %389
!8vb(! z2!8vb)! [F,,C,F,][F,,C,F,] [F,,C,F,][F,,C,F,][F,,C,F,][F,,C,F,] | %390
 z2 [F,,A,,C,F,][F,,A,,C,F,] [F,,A,,C,F,][F,,A,,C,F,][F,,A,,C,F,][F,,A,,C,F,] | %391
 z2 [F,,^A,,C,F,][F,,A,,C,F,] [F,,A,,C,F,][F,,A,,C,F,][F,,A,,C,F,][F,,A,,C,F,] | x8 | %393
 z2 [F,,^A,,C,F,][F,,A,,C,F,] [F,,A,,C,F,][F,,A,,C,F,][F,,A,,C,F,][F,,A,,C,F,] | %394
 z2 [A,,D,F,B,][A,,D,F,B,] [A,,D,F,B,][A,,D,F,B,][A,,D,F,B,][A,,D,F,B,] | x8 | x8 | %397
 z2!mp! [G,,B,,E,G,][G,,B,,E,G,] [G,,B,,E,G,][G,,B,,E,G,][G,,B,,E,G,][G,,B,,E,G,] | %398
 z2!mp! [E,,G,,C,E,][E,,G,,C,E,] [E,,G,,C,E,][E,,G,,C,E,][E,,G,,C,E,][E,,G,,C,E,] | %399
 z2!mp! [G,,B,,E,][G,,B,,E,] [G,,B,,E,][G,,B,,E,] z2 | %400
 z2!mp! [G,,B,,][G,,B,,] [G,,B,,][G,,B,,][G,,B,,][G,,B,,] | %401
 z2!mp! [F,,B,,][F,,B,,] [F,,B,,][F,,B,,][F,,B,,][F,,B,,] | %402
 z2!mp! [B,,D,F,][B,,D,F,] [B,,D,F,][B,,D,F,] z2 | %403
 z2!mp! [A,,D,F,][A,,D,F,] [A,,D,F,][A,,D,F,][A,,D,F,][A,,D,F,] | %404
 z2!mp! [A,,D,F,][A,,D,F,] [A,,D,F,][A,,D,F,][A,,D,F,][A,,D,F,] | %405
 z2!mp! [G,,C,E,G,][G,,C,E,G,] [G,,C,E,G,][G,,C,E,G,][G,,C,E,G,][G,,C,E,G,] | %406
 z2!mp! [F,,A,,C,F,][F,,A,,C,F,] [F,,A,,C,F,][F,,A,,C,F,][F,,A,,C,F,][F,,A,,C,F,] | %407
 [F,,A,,C,F,][F,,A,,C,F,][F,,A,,C,F,][F,,A,,C,F,] [F,,A,,C,F,][F,,A,,C,F,][F,,A,,C,F,][F,,A,,C,F,] | %408
 z2!mp! [G,,E,][G,,E,] [G,,E,][G,,E,] z2 | %409
 z2!mp! [F,,A,,D,F,][F,,A,,D,F,] [F,,A,,D,F,][F,,A,,D,F,][F,,A,,D,F,][F,,A,,D,F,] | %410
 z2!mp! [F,,A,,D,F,][F,,A,,D,F,] [F,,A,,D,F,][F,,A,,D,F,][F,,A,,D,F,][F,,A,,D,F,] | %411
 z2!mp! [E,,G,,C,E,][E,,G,,C,E,] [E,,G,,C,E,][E,,G,,C,E,][E,,G,,C,E,][E,,G,,C,E,] | %412
 z2!mp! [D,,^^F,,^A,,D,][D,,F,,A,,D,] [D,,F,,A,,D,][D,,F,,A,,D,][D,,F,,A,,D,][D,,F,,A,,D,] | x8 | %414
 z2!mp! [D,^^F,^A,][D,F,A,] [D,F,A,][D,F,A,][D,F,A,][D,F,A,] | %415
 z2!mp! [E,G,][E,G,] [E,G,][E,G,][E,G,][E,G,] | %416
 z2!mp! [D,F,=A,][D,F,A,] [D,F,A,]!mf![D,F,A,][D,F,A,]!f![D,F,A,] | x8 | %418
 z2!mp! [C,E,G,][C,E,G,] [C,E,G,][C,E,G,][C,E,G,][C,E,G,] | %419
 z2!mp! [B,,D,G,][B,,D,G,] [B,,D,G,][B,,D,G,][B,,D,G,][B,,D,G,] | %420
 z2!mp! [A,,C,E,][A,,C,E,] [A,,C,E,][A,,C,E,][A,,C,E,][A,,C,E,] | %421
 z2!mp! [G,,B,,E,][G,,B,,E,] [G,,B,,E,][G,,B,,E,][G,,B,,E,][G,,B,,E,] | %422
 z2!mp! [A,,C,E,][A,,C,E,] [A,,C,E,][A,,C,E,][A,,C,E,][A,,C,E,] | %423
 z2!mp! [^A,,C,E,][A,,C,E,] [A,,C,E,][A,,C,E,][A,,C,E,][A,,C,E,] | z2 FE DCB,A,G,F,E,D, | %425
 C,B,,A,,G,,F,,!ff! !>![B,,,B,,]!>![B,,,B,,]!>![B,,,B,,] | %426
 z D,/E,/ [G,,B,,E,][G,,B,,E,] [G,,B,,E,][G,,B,,E,] .[E,,G,,B,,E,] z | %427
 z D,/E,/ [A,,C,E,][A,,C,E,] [A,,C,E,][A,,C,E,] .[E,,A,,C,E,] z | %428
 z D,/E,/ [G,,B,,E,][G,,B,,E,] [G,,B,,E,][G,,B,,E,] .[E,,G,,B,,E,] z | %429
 z D,/E,/ [A,,C,E,][A,,C,E,] [A,,C,E,][A,,C,E,] .[E,,A,,C,E,] z | %430
 (6:4:6[E,,,G,,,B,,,E,,] z [E,,G,,B,,E,] z [E,G,B,E] z (6:4:6[G,,,E,,G,,] z [G,,E,G,] z [G,EG] z | %431
 x20/3[K:treble] x4/3 | x4[K:bass] x4 | x8 | x8 |] %435
V:4
 x2 | x6 | x6 | x6 | x6 | x6 | x6 | x6 | x4[K:bass] F,2 | F,4 x2 | x6 | A,4 x2 | x6 | %13
 G,2 =A,2 [F,A,]2 | x6 | x2 B,2 ^A,F, | x6 | =G,2 F,4 | F,2 F,2 x2 | _B,2 A,4 | A,2 A,2 x2 | %21
 _D2 =C4 | [=A,-=C]2 [A,B,-]2 [^G,B,]2 | A,4 x2 | x4[K:treble] x2 | =G2 F4 | A,2 x4 | %27
 [=G_B]2 [=FA]4 | =C2 x4 | [_B_d]2 [_A=c]4 | =c2!mp! B4 | D2 ^C4 | %32
 (3z!pp! B,B, (3B,!pp!B,B, (3B,B,B, | x6 | x6 | x6 | %36
 (3[F^Ac]!p!FF (3[FA][FA]!mp![FA] (3[FAc][FAc]!mf![FAc] | x6 ||[M:9/8] x9 | x9 | x9 | x9 | x9 | %43
 x9 | x9 | x9 | x9 | x9 | x9 | x9 | x9 | x9 | x9 | x6 x (3z z B ||[M:3/4] =G2!mf! F4 || %55
[M:9/8] A6 z (3z z =d ||[M:3/4] _B2!mf! A4 ||[M:9/8] =c6 x (3z x =f ||[M:3/4] _d2 =c4 || %59
[M:9/8] (3A/!p!=c/ z/ (3c/B/ z/ (3B/c/ z/!pp! (3c/B/ z/ (3B/^A/ z/ (3A/=A/ z/ (3A/!pp!G/ z/ (3^^F/G/ z/ (3=F/D/ z/ || %60
[M:3/4] A4 E2 || %61
[M:9/8] (3B,/!pp!D/ z/ (3D/^A/ z/ (3A/=A/ z/ (3A/=G/ z/ (3G/F/ z/ (3F/E/ z/ (3E/D/ z/ (3D/=C/ z/ (3C/!mp!B,/ z/ || %62
[M:3/4] x6 ||[M:9/8] A,6[K:bass] (3=D/=C/ z/ (3C/_B,/ z/ (3B,/A,/ z/ ||[M:3/4] _B,2 A,4 || %65
[M:9/8] x9 ||[M:3/4] _D2 [_A,=C]4 || %67
[M:9/8] (3A,/!pp!=C/ z/ (3C/B,/ z/ (3B,/C/ z/ (3C/B,/ z/ (3B,/^A,/ z/ (3B,/=A,/ z/ (3A,/!pp!G,/ z/ (3^^F,/G,/ z/ (3=F,/E,/ z/ || %68
[M:3/4] x6 ||[M:9/8] x6 B,3 ||[M:3/4] x6 | x4 (3:2:2E,2 E, | E,4 E,2 | F,4 x2 | x6 | x6 | x4 E,2 | %77
 D,4 F,2 | F,4 G,2 | A,4 E,2 | A,4 G,2 ||[M:4/4] [=G,^A,]2"^= 120" z2 z4 |[K:treble] x8 | x8 | x8 | %85
 x8 | x8 | x8 |!8va(! x8 | x8 | x8 | x8 | ^d'4 d'4 | d'4 d'4 | ^c'2!8va)! x6 | x8 | x8 | x8 | x8 | %99
 x2 f2 x4 | x8 | x8 |!8va(! x8 | x8 | x8 | x8 | x8 | x8 | x8 | x8!8va)! | x8 | x8 | x8 | x8 | x8 | %115
!8va(! x8 | x4!8va)! x4 | x8 | x8 |!8va(! x8 | x8 | x8!8va)! | x8 | x8 | x8 | x8 | x8 | %127
 [ea]4 [fa]4 | x8 | x8 | x8 | x8 | x8 | x8 | x8 | x8 | x8 | %137
 E/E/^A/c/ z/!8va(! e/^a/c'/ z/ e'/^a'/c''/ z/ e/a/c'/ | %138
 z/!8va)! E/^A/c/ z/ e/^a/c'/ z/!ff!!8va(! e'/^a'/c''/ [a'c''e''g'']!8va)! z | x8 | x8 | x8 | %142
!8va(! x8!8va)! | x8 | x8 | x8 | x8 | x8 | x8 | x4 [e^a]2 z2 | x4 [F^Ac]FAc | x8 | x8 | x8 | x8 | %155
 x8 | x8 | x8 | x8 | x8 | x8 | x8 | x8 | x8 | x8 | ^e4 x4 | x8 | x8 | x4 =A3 ^A | x8 | x8 | x8 | %172
 x4 =f'3!ff! e' |!8va(! z2 [fa]!mf![fa][fa][fa] [^eg]!mf![eg] | %174
 [^eg]!mf![eg] z2 [=e=g^a]!mf![e^g^a] z2 | z2 [a=c']!mf![ac'][ac'][ac'] [gb]!mf![gb] | %176
 [gb][gb] x6 | z2 [=c'_e']!mf![c'e'][c'e'][c'e'] [b=d']!mf![bd'] | %178
 [b=d'][bd'] x2 [_b^c'=e']!mf![bc'e'] [a=c'_e'][ac'e'] | %179
 [_a=c'_e'][ac'e'] x2 [a=b=d'][abd'][=g^a^c'][gac'] | [=g^ac'][gac'] z2 [f=a^b][fab][^e^gb][egb] | %181
 x8 | x8 | x8 | x8 | x8 | x8 | x8 | x8 | x8 | x8 | x8 | x8!8va)! | x8 | x8 | x8 | x8 | x8 | x8 | %199
 x8 | x8 | x8 | x8 | x8 |!8va(! =d'6 z2 | %205
 z/4!ppp! _b/4[c'e']/4b/4[c'e']/4b/4[c'e']/4b/4 [c'e']/4b/4[c'e']/4b/4[c'e']/4b/4[c'e']/4b/4 [c'e']/4b/4[c'e']/4b/4[c'e']/4b/4[c'e']/4b/4 [c'e']/4b/4[c'e']/4b/4[c'e']/4b/4[c'e']/4b/4 | %206
 =d'6 z2 | %207
 z/4!ppp! _b/4[c'e']/4b/4[c'e']/4b/4[c'e']/4b/4 [c'e']/4b/4[c'e']/4b/4[c'e']/4b/4[c'e']/4b/4 [c'e']/4b/4[c'e']/4b/4[c'e']/4b/4[c'e']/4b/4 [c'e']/4b/4[c'e']/4b/4[c'e']/4b/4[c'e']/4b/4 | %208
 =f'6 x2 | %209
 z/4!ppp! =d'/4[e'=g']/4d'/4[e'g']/4d'/4[e'g']/4d'/4 [e'g']/4d'/4[e'g']/4d'/4[e'g']/4d'/4[e'g']/4d'/4 [e'g']/4d'/4[e'g']/4d'/4[e'g']/4d'/4[e'g']/4d'/4 [e'g']/4d'/4[e'g']/4d'/4[e'g']/4d'/4[e'g']/4d'/4 | %210
 =f'6 z2 | %211
 z/4!ppp! c'/4[e'=g']/4c'/4[e'g']/4c'/4[e'g']/4c'/4 [e'g']/4c'/4[e'g']/4c'/4[e'g']/4c'/4[e'g']/4c'/4 [e'g']/4c'/4[e'g']/4c'/4[e'g']/4c'/4[e'g']/4c'/4 [e'g']/4c'/4[e'g']/4c'/4[e'g']/4c'/4[e'g']/4c'/4 | %212
 ^g6 z2 | [a^bd']8 | ^e'8 | =e'6 e'2 | d'8 | =d'4!p! c'3 ^b | ^d'4 c'3!mp! f' | %219
 ^e'4 ^e'd'!mp!bg!8va)! | ^A2 G>=G G2 F2 | [CE]6 x2 | z2 D6 | [B,E]4 [CE]2 z2 | [CE]6 x2 | %225
 [CE]6 x2 | =D4 [=E=G]4 | [^DA]4 [=D^EG]4 | [CE]6 x2 | x8 | x8 | x8 | x8 | x8 | x8 | x8 | x8 | x8 | %238
 x5!8va(! x2!8va)! x | x5!8va(! x2!8va)! x | x8 | x8 | x8 | x8 | x8 | x8 | x8 | x8 | x8 | x8 | x8 | %251
 x8 | x8 | x8 | x8 | x8 | x8 | x8 | [GBe]4!mf! [^Ac]2 [FB]2 | [FB]4 G4 | [=E^Ac]8 | x8 | %262
 [GBe]4!mf!!>(! [^Ac]2 [FB]2!>)! | [FB]4 G4 | [=E^Ac]8 | x8 | x8 | x4 =d3 ^d | x8 | x8 | x8 | x8 | %272
 x8 | x8 | x8 | x8 | x8 | x8 | x8 |!8va(! x8 | x8 | x8 | x8 | x6!8va)! x2 | x8 | x8 | x8 | x8 | %288
 x8 | x8 | x8 | x8 | x8 | x8 | x8 | x8 | x8 | x8 | x8 | x8 | x8 | %301
!8va(! x2 [be'g']!mf![be'g'][be'g'][be'g'] [c'e'=g'][c'e'g'] |[c'e'=g'][c'e'g'] z2 z4 | %303
 x2 [=g=c'e']!mf![gc'e'][g_b^c'e'][^gbc'e'] [a=c'_e']!mf![ac'e'] | [a=c'_e'][ac'e'] x6 | %305
 x6!8va)! x2 | x8 | x8 | x8 | x8 | x8 | x8 | x8 | x8 | x8 | x8 | x8 | x8 | x8 | x8 | %320
 x4 z/!pp! ^A,/ A,/=A,/ x2 | x!ppp! E/D/ D/C/ C/=C/ C/B,/ B,/^A,/ A,/=A,/ A,/G,/ | %322
 G,/E/ E/D/ D/C/ C/=C/ z!ppp! B,/^A,/ A,/B,/ B,/^B,/ | x8 | x8 | B,8 | C4 z4 | B,8 | x8 | F8- | %330
 F4 z4 | D8- | D4 z4 | x8 | x8 | x8 | x8 | C8 | x8 | x8 | x8 | C8 | x8 | C8- | C4 x4 | x8 | x8 | %347
 E8 | x8 | x8 | x8 | x8 | x8 | x8 | x8 | x8 | x8 | x8 | x8 | x8 | x8 | x8 | x8 | x8 | x8 | D4 x4 | %366
 x8 | x8 | x8 | x8 | x8 | [F,B,D]8 | D4 x4 | [G,B,D]8 | [G,B,D]6 E2 | [^A,CF-]8 | F8 | B8 | %378
 [B,DFB]8 | [EGBe]8 | x8 | [B,EB]8 | [G,CEG]8 | x8 | x8 | [B,EB]8 | [CEc]8 | [B,EB]8 | [B,CFB]8 | %389
 [A,CFA]8 | [CFAc]8 | [F^Acf]8!8va(! | x8!8va)! | [E^Ace]8 | [DFBd]8 | x8 | x8 | [EGBe]8 | %398
 [CEGc]8 | [B,EB]6 [G,B,EG]2 | [G,B,DG]8 | [F,DF]8 | [B,DFB]6 [CDFc]2 | [CDFc]8 | [B,DFB]8 | %405
 [CEGc]8 | [CFAc]8 | x8 | [B,EGB]6 [CDAc]2 | [CDAc]8 | [B,DAB]8 | [CEGc]8 | [C^^F^Ac]8 | x8 | %414
 [C^^F^Ac]8 | [B,EGB]8 | [B,D=AB]8 | x8 | [EGe]8 | [DGd]8 | [CAc]8 | [B,EB]8 | [A,CFA]8 | %423
 [G,CEG]8 | [F,B,EF]8 x4 | x8 | [G,B,E]8 | [A,CE]8 | [EGBe]8 | [EAce]8 | x8 | %431
 x2!8va(! x2!8va)! x10/3!8va(! x2/3 | x2!8va)! x6 | x8 | x8 |] %435
V:5
 x2 | x6 | x6 | x6 | x6 | x6 | x6 | x6 | x6 | x6 | x6 | x6 | x6 | x6 | x6 | x6 | x6 | x6 | x6 | %19
 x6 | x6 | x6 | x6 | x6 | x6 | x6 | x6 | x6 | x6 | x6 | x6 | x6 | x6 | x6 | x6 | x6 | x6 | x6 || %38
[M:9/8] x9 | x9 | x9 | x9 | x9 | x9 | x9 | x9 | x9 | x9 | x9 | x9 | x9 | x9 | x9 | x9 || %54
[M:3/4] (3E,!mp!E,E, (3=D,!mp!D,D, (3C,!p!C,C, ||[M:9/8] x9 || %56
[M:3/4] (3=G,!mp!G,G, (3=F,!mp!F,F, (3E,!p!E,E, ||[M:9/8] x9 ||[M:3/4] x6 ||[M:9/8] x9 || %60
[M:3/4] x6 ||[M:9/8] x9 ||[M:3/4] x6 ||[M:9/8] x9 ||[M:3/4] x6 ||[M:9/8] x9 ||[M:3/4] x6 || %67
[M:9/8] x9 ||[M:3/4] x6 ||[M:9/8] x9 ||[M:3/4] x6 | x6 | x6 | x6 | x6 | x6 | x6 | x6 | x6 | x6 | %80
 x6 ||[M:4/4] x4[K:treble] x4 | x8 | x8 | x8 | x8 | x8 | x8 | x8 | x8 |[K:bass] x8 | x8 | x8 | x8 | %94
 x8 | x8 | x8 | x11/2[K:treble] x5/2 | x8 | x8 |[K:bass] x8 | x2[K:treble] x6 | x8 | x8 | x8 | x8 | %106
 x8 | x8 | x8 | x8 | x8 | x8 | x[K:bass] x3[K:treble] x4 | x8 | x8 | x8 | %116
 x[K:bass] x3[K:treble] x4 | x8 | x8 | x8 | x8 | x8 | x[K:bass] x3[K:treble] x4 | x8 |[K:bass] x8 | %125
 x8 | x8 | x4[K:treble] x4 |[K:bass] x8 | x8 | x8 | x4[K:treble] x4 |[K:bass] x8 | x8 | x8 | x8 | %136
 x8 | x4[K:treble] x4 |[K:bass] x4[K:treble] x4 | x8 | x[K:bass] x7 | x8 | x8 | x8 | x8 | x8 | x8 | %147
 x8 | x8 | x8 | x8 | x8 | x8 | x8 | x8 | x8 | x8 | x8 | x8 | x8 | x8 | x8 | x8 | x8 | x8 | x8 | %166
 x8 | x8 | x8 | x8 | x8 | x8 | x8 | x8 | x8 | x3/2[K:treble] x13/2 | x8 | %177
[K:bass] x3/2[K:treble] x13/2 | x8 | x8 | x8 |[K:bass] x4[K:treble] x4 | x8 | x8 | x8 | x8 | x8 | %187
 x8 | x8 | x8 | x8 | x8 | x8 | x8 | x8 | x8 | x8 | x8 | x8 | x8 | x8 | x8 | x8 | x8 | x8 | x8 | %206
 x8 | x8 | x8 | x8 | x8 | x8 | x8 | x8 | x8 | x8 | x8 | x8 | x8 | x8 |[K:bass] x8 | x8 | x8 | x8 | %224
 x8 | x8 | x8 | x8 | x8 | x8 | x8 | x8 | x8 | x8 | x8 | x8 | x8 | x8 | x4[K:treble] x2[K:bass] x2 | %239
 x11/3[K:treble] x2[K:bass] x7/3 | x[K:treble] x7 | x2[K:bass] x6 | x8 | x8 | x8 | x8 | x8 | x8 | %248
 x8 | x8 | x8 | x8 | x8 | x8 | x8 | x8 | x8 | x8 | x8 | x8 | x8 | x8 | x8 | x8 | x8 | x8 | x8 | %267
 x8 | x8 | x8 | x8 | x8 | x8 | x8 | x8 | x8 | x8 | x8 | x8 | x8 | x8 |[K:treble] x8 | x8 | %283
 x6[K:bass] x2 | x8 |[K:treble] x6[K:bass] x2 |[K:treble] x6[K:bass] x2 |[K:treble] x8 | x8 | %289
 x/[K:bass] x3[K:treble] x9/2 | x8 | x8 | x8 |[K:bass] x8 | x8 | x8 | x8 | x8 | x8 | x8 | x8 | x8 | %302
 x8 | x8 | x8 | x8 | x8 | x8 | x8 | x8 | x8 | x8 | x8 | x8 | x8 | x8 | x8 | x8 | x8 | x8 | x8 | %321
 x8 | x8 | x8 | x8 | x8 | x8 | x8 | x8 | x8 | x8 | x8 | x8 | x8 | x8 | x8 | x8 | x8 | x8 | x8 | %340
 x8 | x8 | x8 | x8 | x8 | x8 | x8 | x8 | x8 | x8 | x8 | x8 | x8 | x8 | x8 | x8 | x8 | x8 | x8 | %359
 x8 | x8 | x8 | x8 | x8 | x8 | x8 | x8 | x8 | x8 | x8 | x8 | x8 | x4 D4 | x8 | x8 | x8 | x8 | x8 | %378
 x8 | x8 | x8 | x8 | x8 | x8 | x8 | x8 | x8 | x8 |!8vb(! x2!8vb)! x6 |!8vb(! x2!8vb)! x6 | x8 | %391
 x8 | x8 | x8 | x8 | x8 | x8 | x8 | x8 | x8 | x8 | x8 | x8 | x8 | x8 | x8 | x8 | x8 | x8 | x8 | %410
 x8 | x8 | x8 | x8 | x8 | x8 | x8 | x8 | x8 | x8 | x8 | x8 | x8 | x8 | x12 | x8 | x8 | x8 | x8 | %429
 x8 | x8 | x20/3[K:treble] x4/3 | x4[K:bass] x4 | x8 | x8 |] %435

